!!!!SEGMENT: pl-wtm--r-1017_kurpinski-karol-kazimierz--polonez.krn
!!!id: 18xx:2301
!!!COM: Kurpiński, Karol Kazimierz
!!!COM-rism: pe30018952
!!!CDT: 1785/03/06-1857/09/18
!!!CNT: Polish
!!!OTL: Polonez
!!!PDT: 1827
!!!SMS-siglum: PL-Wtm
!!!SMS-shelfmark: R 1017
!!!SMS-variant:
!!!SMS-altvar:
!!!NIFC-rismID: 1001087025
!!!system-decoration: {(s1,s2,s3,s4,s5,s6)}{(s7,s8)}{(s9,s10,s11,s12,s13)}
**kern	**dynam	**kern	**dynam	**kern	**dynam	**kern	**dynam	**kern	**dynam	**kern	**dynam	**kern	**dynam	**kern	**dynam	**kern	**dynam	**kern	**dynam	**kern	**dynam	**kern	**dynam	**kern	**dynam
*part13	*part13	*part12	*part12	*part11	*part11	*part10	*part10	*part9	*part9	*part8	*part8	*part7	*part7	*part6	*part6	*part5	*part5	*part4	*part4	*part3	*part3	*part2	*part2	*part1	*part1
*staff13	*	*staff12	*	*staff11	*	*staff10	*	*staff9	*	*staff8	*	*staff7	*	*staff6	*	*staff5	*	*staff4	*	*staff3	*	*staff2	*	*staff1	*
*	*	*I"V:Celli at C.Bassi	*	*I"Viole	*	*I"2	*	*I"V:1	*	*I"Tympani d:a	*	*I"Tromby in D	*	*I"Fagotti	*	*I"Corni in D	*	*I"Clarinetti in A	*	*I"Oboi	*	*I"Piccolino	*	*I"Flauto Solo	*
*	*	*I'Vc.	*	*I'Va	*	*I'Vn II	*	*I'Vn 1	*	*I'Timp.	*	*I'Tr-ba in D	*	*I'Fag.	*	*I'C. in D	*	*I'Cl. in A	*	*I'Ob.	*	*I'Fl. picc.	*	*I'Fl. Solo	*
*clefF4	*	*clefF4	*	*clefC3	*	*clefG2	*	*clefG2	*	*clefF4	*	*clefG2	*	*clefF4	*	*clefG2	*	*clefG2	*	*clefG2	*	*clefG2	*	*clefG2	*
*ITrd0c0	*	*	*	*	*	*	*	*	*	*	*	*ITrd-1c-2	*	*	*	*ITrd-1c-2	*	*ITrd2c3	*	*	*	*ITrd0c0	*	*	*
*k[f#c#]	*	*k[f#c#]	*	*k[f#c#]	*	*k[f#c#]	*	*k[f#c#]	*	*k[f#c#]	*	*k[f#c#]	*	*k[f#c#]	*	*k[f#c#]	*	*k[f#c#]	*	*k[f#c#]	*	*k[f#c#]	*	*k[f#c#]	*
*M3/4	*	*M3/4	*	*M3/4	*	*M3/4	*	*M3/4	*	*M3/4	*	*M3/4	*	*M3/4	*	*M3/4	*	*M3/4	*	*M3/4	*	*M3/4	*	*M3/4	*
*>[A,B,B,C,C,B,C,D,A,B,C]	*	*>[A,B,B,C,C,B,C,D,A,B,C]	*	*>[A,B,B,C,C,B,C,D,A,B,C]	*	*>[A,B,B,C,C,B,C,D,A,B,C]	*	*>[A,B,B,C,C,B,C,D,A,B,C]	*	*>[A,B,B,C,C,B,C,D,A,B,C]	*	*>[A,B,B,C,C,B,C,D,A,B,C]	*	*>[A,B,B,C,C,B,C,D,A,B,C]	*	*>[A,B,B,C,C,B,C,D,A,B,C]	*	*>[A,B,B,C,C,B,C,D,A,B,C]	*	*>[A,B,B,C,C,B,C,D,A,B,C]	*	*>[A,B,B,C,C,B,C,D,A,B,C]	*	*>[A,B,B,C,C,B,C,D,A,B,C]	*
=1	=1	=1	=1	=1	=1	=1	=1	=1	=1	=1	=1	=1	=1	=1	=1	=1	=1	=1	=1	=1	=1	=1	=1	=1	=1
*	*	*	*	*	*	*	*	*	*	*	*	*	*	*	*	*	*	*^	*	*	*	*	*	*	*
*	*	*	*	*	*	*	*	*	*	*	*	*	*	*	*	*	*	*	*	*	*^	*	*	*	*	*
*	*	*	*	*	*	*	*	*	*	*	*	*^	*	*	*	*	*	*	*	*	*	*	*	*	*	*	*
*	*	*2\right	*	*2\right	*	*2\right	*	*2\right	*	*2\right	*	*2\right	*2\right	*	*2\right	*	*2\right	*	*2\right	*2\right	*	*2\right	*2\right	*	*2\right	*	*2\right	*
*>A	*	*>A	*	*>A	*	*>A	*	*>A	*	*>A	*	*>A	*>A	*	*>A	*	*>A	*	*>A	*>A	*	*>A	*>A	*	*>A	*	*>A	*
!!LO:TX:a:t=P:problem:all\right:global
!	!	!	!	!	!	!	!	!	!	!	!	!	!	!	!	!	!	!	!	!	!	!	!	!	!	!	!LO:TX:a:Bi:t=Polonez	!
!	!	!	!LO:DY:b:rj	!	!	!	!LO:DY:b:rj	!	!LO:DY:b:rj	!	!LO:DY:b:rj	!	!	!LO:DY:b:rj	!	!LO:DY:b:rj	!	!LO:DY:b:rj	!	!	!LO:DY:b:rj	!	!	!LO:DY:b:rj	!	!LO:DY:b:rj	!	!LO:DY:b:rj
2.ryy	.	8D\L	ff	8d\L	.	8d/L	ff	8ddL 8d\	ff	8D/L	ff	8d/L	8d\L	f	8D\L	ff	8ddL 8d/	f	8dd/L	8dd\L	f	8dd/L	8dd\L	f	8dd\L	f	8ddd\L	f
.	.	16D\L	.	16d\L	.	16d/L	.	16ddL 16d\	.	16D/L	.	16d/L	16d\L	.	16D\L	.	16ddL 16d/	.	16dd/L	16dd\L	.	16dd/L	16dd\L	.	16dd\L	.	16ddd\L	.
.	.	16D\JJ	.	16d\JJ	.	16d/JJ	.	16ddJJ 16d\	.	16D/JJ	.	16d/JJ	16d\JJ	.	16D\JJ	.	16ddJJ 16d/	.	16dd/JJ	16dd\JJ	.	16dd/JJ	16dd\JJ	.	16dd\JJ	.	16ddd\JJ	.
!	!	!	!	!LO:TX:a:Bi:t=Col b&colon;	!	!	!	!	!	!	!	!	!	!	!	!	!	!	!	!	!	!	!	!	!	!	!	!
.	.	8D\L	.	8d\Lyy	.	8d/L	.	8ddL 8d\	.	8D/L	.	8d/L	4ryy	.	8D\L	.	8ddL 8d/	.	8dd\L	2ryy	.	8dd/L	8dd\L	.	8dd\L	.	8ddd\L	.
.	.	8AA\	.	8A\yy	.	8A/	.	8a\	.	8AA/	.	8A/	.	.	8AA\	.	8a 8A/	.	8a\	.	.	8a/	8a\	.	8a\	.	8aa\	.
.	.	8D\	.	8d\yy	.	8d/	.	8dd\	.	8D/	.	8d/	4ryy	.	8D\	.	8dd 8d/	.	8dd\	.	.	8dd/	8dd\	.	8dd\	.	8ddd\	.
.	.	8AA\J	.	8A\Jyy	.	8A/J	.	8a\J	.	8AA/J	.	8A/J	.	.	8AA\J	.	8aJ 8A/	.	8a\J	.	.	8a/J	8a\J	.	8a\J	.	8aa\J	.
*	*	*	*	*	*	*	*	*	*	*	*	*	*	*	*	*	*	*	*v	*v	*	*	*	*	*	*	*	*
*	*	*	*	*	*	*	*	*	*	*	*	*v	*v	*	*	*	*	*	*	*	*v	*v	*	*	*	*	*
=2	=2	=2	=2	=2	=2	=2	=2	=2	=2	=2	=2	=2	=2	=2	=2	=2	=2	=2	=2	=2	=2	=2	=2	=2	=2
!	!	!	!	!	!	!	!	!	!	!	!	!	!	!LO:TX:a:Bi:t=Col b&colon;	!	!	!	!	!	!	!	!	!	!	!
2.ryy	.	8D'>\L	.	8d'>\Lyy	.	8d'</L	.	8dd'>\L	.	8D/	.	8d/L	.	8D'>\Lyy	.	8ddL 8d/	.	8dd'>\L	.	8ddL 8d/	.	8dd\L	.	8ddd'\L	.
.	.	8F#'>\J	.	8f#'>\Jyy	.	8f#'</J	.	8ff#'>\J	.	8r	.	8f#/J	.	8F#'>\Jyy	.	8ff#J 8f#/	.	8ff#'>\J	.	8ff#J 8f#/	.	8ff#\J	.	8fff#'\J	.
.	.	4.A^<\	.	4.a^<\yy	.	4.a^</	.	4.aa^>\	.	2AA^<TT>/	.	4.a^>/	.	4.A^<\yy	.	4.aa 4.a^<\	.	4.aa 4.a^<\	.	4.aa 4.a^>/	.	4.aa^>\	.	4.aaa^>\	.
.	.	16F#\LL	.	16f#\LLyy	.	16f#/LL	.	16ff#\LL	.	.	.	16f#/LL	.	16F#\LLyy	.	16ff#LL 16f#\	.	16f#/LL	.	16ff#LL 16f#/	.	16ff#\LL	.	16ff#\LL	.
.	.	16F#\JJ	.	16f#\JJyy	.	16f#/JJ	.	16ff#\JJ	.	.	.	16f#/JJ	.	16F#\JJyy	.	16ff#JJ 16f#\	.	16f#/JJ	.	16ff#JJ 16f#/	.	16ff#\JJ	.	16ff#\JJ	.
=3	=3	=3	=3	=3	=3	=3	=3	=3	=3	=3	=3	=3	=3	=3	=3	=3	=3	=3	=3	=3	=3	=3	=3	=3	=3
*	*	*	*	*	*	*	*	*	*	*	*	*^	*	*	*	*	*	*	*	*	*	*	*	*	*
*	*	*	*	*	*	*	*	*	*	*	*	*	*	*	*	*	*^	*	*	*	*	*	*	*	*	*
*	*	*	*	*	*	*	*	*	*	*	*	*	*	*	*	*	*	*	*	*	*	*^	*	*	*	*	*
!	!	!	!	!	!	!LO:TX:a:Bi:t=Col b&colon;	!	!	!	!	!	!	!	!	!	!	!	!	!	!	!	!	!	!	!	!	!	!
2.ryy	.	8F#'>\L	.	8f#'>\Lyy	.	8f#'</Lyy	.	8ff#'>\L	.	4r	.	8f#/L	4ryy	.	8F#'>\Lyy	.	8ff#L 8f#/	4ryy	.	8f#/L	.	8ff#L 8f#/	4ryy	.	8ff#'>\L	.	8ff#'>\L	.
.	.	8A'>\J	.	8a'>\Jyy	.	8a'</Jyy	.	8aa'>\J	.	.	.	8a/J	.	.	8A'>\Jyy	.	8aaJ 8a/	.	.	8a/J	.	8aaJ 8a/	.	.	8aa'>\J	.	8aa'>\J	.
.	.	4.d^<\	.	4.dd^<\yy	.	4.dd^<\yy	.	4.ddd^>\	.	2D^<TT>/	.	4.dd^>/	4.dd\	.	4.d^<\yy	.	4.dd/	4.dd^<\	.	4.dd^<\	.	4.ddd 4.dd^<\	4.ryy	.	4.ddd^<\	.	4.ddd^<\	.
.	.	16A\LL	.	16a\LLyy	.	16a/LLyy	.	16aa\LL	.	.	.	16a/LL	16a\LL	.	16A\LLyy	.	16a/LL	16a\LL	.	16a\LL	.	16a/LL	16a\LL	.	16aa\LL	.	16aa\LL	.
.	.	16A\JJ	.	16a\JJyy	.	16a/JJyy	.	16aa\JJ	.	.	.	16a/JJ	16a\JJ	.	16A\JJyy	.	16a/JJ	16a\JJ	.	16a\JJ	.	16a/JJ	16a\JJ	.	16aa\JJ	.	16aa\JJ	.
=4	=4	=4	=4	=4	=4	=4	=4	=4	=4	=4	=4	=4	=4	=4	=4	=4	=4	=4	=4	=4	=4	=4	=4	=4	=4	=4	=4	=4
2.ryy	.	8A\L	.	8a\L	.	8a\Lyy	.	8aa'>\L	.	2.r	.	8a/L	8a\L	.	8A\L	.	8a/L	8a\L	.	8a'>\L	.	8a/L	8a\L	.	8aa'\L	.	8aa\L	.
.	.	8d\J	.	8dd\J	.	8dd\Jyy	.	8ddd'>\J	.	.	.	8dd/J	8dd\J	.	8d\J	.	8dd/J	8dd\J	.	8dd'>\J	.	8dd/J	8dd\J	.	8ddd'\J	.	8ddd\J	.
.	.	4.f#^<\	.	8ff#\L	.	4.ff#^<\yy	.	8fff#\L	.	.	.	8ff#/L	8ff#\L	.	8f#\L	.	8ff#/L	8ff#\L	.	8ff#\L	.	8ff#/L	8ff#\L	.	8ff#\L	.	8fff#\L	.
.	.	.	.	16ff#\L	.	.	.	16fff#\L	.	.	.	16ff#/L	16ff#\L	.	16f#\L	.	16ff#/L	16ff#\L	.	16ff#\L	.	16ff#/L	16ff#\L	.	16ff#\L	.	16fff#\L	.
.	.	.	.	16ff#\JJ	.	.	.	16fff#\JJ	.	.	.	16ff#/JJ	16ff#\JJ	.	16f#\JJ	.	16ff#/JJ	16ff#\JJ	.	16ff#\JJ	.	16ff#/JJ	16ff#\JJ	.	16ff#\JJ	.	16fff#\JJ	.
.	.	.	.	8ff#\L	.	.	.	8fff#\L	.	.	.	8ff#/L	8ff#\L	.	8f#\L	.	8ff#/L	8ff#\L	.	8ff#\L	.	8ff#/L	8ff#\L	.	8ff#\L	.	8fff#\L	.
.	.	8r	.	8ff#\J	.	8ryy	.	8fff#\J	.	.	.	8ff#/J	8ff#\J	.	8f#\J	.	8ff#/J	8ff#\J	.	8ff#\J	.	8ff#/J	8ff#\J	.	8ff#\J	.	8fff#\J	.
=5	=5	=5	=5	=5	=5	=5	=5	=5	=5	=5	=5	=5	=5	=5	=5	=5	=5	=5	=5	=5	=5	=5	=5	=5	=5	=5	=5	=5
*	*	*	*	*	*	*	*	*	*	*	*	*	*	*	*	*	*	*	*	*^	*	*	*	*	*	*	*	*
!	!	!	!LO:DY:b:rj	!	!	!	!	!	!	!	!	!	!	!	!	!	!	!	!	!	!	!	!	!	!	!	!	!	!
2.ryy	.	8.AA#X^>/L	ff	8.g\L	.	8.ff#L 8.cc#^<\	.	8.fff#^<\L	.	2.r	.	[>2.ff#/	2.ff#\	>	8.A#XL 8.AA#X^</	.	[>2.ff#/	2.ff#\	>	8.ff#/L	8.f#^<\L	.	8.ff#/L	8.cc#\L	.	8.ff#^<\L	.	8.fff#^<\L	.
.	.	16AA#/K	.	16cc#\K	.	16ff#K 16cc#\	.	16eee\K	.	.	.	.	.	.	16A#K 16AA#/	.	.	.	.	16ff#/K	16cc#\K	.	16ff#/K	16cc#\K	.	16eee\K	.	16eee\K	.
.	.	8.AA#^>/	.	8.cc#\	.	8.ff# 8.cc#^<\	.	8.eee^<\	.	.	.	.	.	.	8.A# 8.AA#^</	.	.	.	.	8.ff#/	8.cc#^<\	.	8.ff#/	8.cc#\	.	8.eee^<\	.	8.eee^<\	.
.	.	16BB/K	.	16b\K	.	16ff#K 16dd\	.	16ddd\K	.	.	.	.	.	.	16BK 16BB/	.	.	.	.	16ff#/K	16b\K	.	16ff#/K	16dd\K	.	16ddd\K	.	16ddd\K	.
.	.	8.BB^>/	.	8.b\	.	8.ff# 8.dd^<\	.	8.ddd^<\	.	.	.	.	.	.	8.B 8.BB^</	.	.	.	.	8.ff#/	8.b^<\	.	8.ff#/	8.dd\	.	8.ddd^<\	.	8.ddd^<\	.
.	.	16C#/Jk	.	16a#X\Jk	.	16ff#Jk 16ee\	.	16ccc#\Jk	.	.	.	.	.	.	16c#Jk 16C#/	.	.	.	.	16ff#/Jk	16a#X\Jk	.	16ff#/Jk	16ee\Jk	.	16ccc#\Jk	.	16ccc#\Jk	.
*	*	*	*	*	*	*	*	*	*	*	*	*	*	*	*	*	*	*	*	*	*	*	*v	*v	*	*	*	*	*
=6	=6	=6	=6	=6	=6	=6	=6	=6	=6	=6	=6	=6	=6	=6	=6	=6	=6	=6	=6	=6	=6	=6	=6	=6	=6	=6	=6	=6
2.ryy	.	8.C#^>/L	.	8.a\L	.	8.ff#L 8.ee^<\	.	8.ccc#^<\L	.	2.r	.	2ff#/]	2ff#\	]]	8.c#L 8.C#\	.	2ff#/]	2ff#\	]]	8.ff#/L	8.a^<\L	.	8.ff#L 8.ee^>\	.	8.ccc#\L	.	8.ccc#^<\L	.
.	.	16D/K	.	16b\K	.	16ff#K 16dd\	.	16bb\K	.	.	.	.	.	.	16dK 16D\	.	.	.	.	16ff#/K	16b\K	.	16ff#K 16dd\	.	16bb\K	.	16bb\K	.
.	.	8.D^>/	.	8.b\	.	8.ff# 8.dd^<\	.	8.bb^<\	.	.	.	.	.	.	8.d 8.D\	.	.	.	.	8.ff#/	8.b^<\	.	8.ff# 8.dd^>\	.	8.bb\	.	8.bb^<\	.
.	.	16D#X/K	.	16ccn\K	.	16ff#\K	.	16aa\K	.	.	.	.	.	.	16d#XK 16D#X\	.	.	.	.	16ff#/K	16ccX\K	.	16ff#K 16ccn\	.	16aa\K	.	16aa\K	.
.	.	8.D#^>/	.	8.cc\	.	8.ff#^<\	.	8.aa^<\	.	.	.	4r	4r	.	8.d# 8.D#\	.	4r	4ryy	.	8.ff#/	8.cc^<\	.	8.ff# 8.cc^>\	.	8.aa\	.	8.aa^<\	.
!!LO:TX:a:Bi:t=[segno]:problem:znak segno na kresce taktowej w każdym głosie
.	.	16E/Jk	.	16b\Jk	.	16ee\Jk	.	16gg\Jk	.	.	.	.	.	.	16eJk 16E\	.	.	.	.	16ee/Jk	16b\Jk	.	16ggJk 16b\	.	16gg\Jk	.	16gg\Jk	.
*	*	*	*	*	*	*	*	*	*	*	*	*v	*v	*	*	*	*v	*v	*	*	*	*	*	*	*	*	*	*
=7||	=7||	=7||	=7||	=7||	=7||	=7||	=7||	=7||	=7||	=7||	=7||	=7||	=7||	=7||	=7||	=7||	=7||	=7||	=7||	=7||	=7||	=7||	=7||	=7||	=7||	=7||
*>B	*	*>B	*	*>B	*	*>B	*	*>B	*	*>B	*	*>B	*	*>B	*	*>B	*	*>B	*>B	*	*>B	*	*>B	*	*>B	*
*	*	*tremolo	*	*	*	*	*	*	*	*	*	*	*	*	*	*	*	*	*	*	*	*	*	*	*	*
!	!	!	!LO:DY:b:rj	!	!	!	!	!	!LO:DY:b:rj	!	!	!	!	!	!	!	!	!	!	!	!	!	!	!LO:DY:b:rj	!	!
2.ryy	.	8E\L	fp	8b\	fp	8ee\	fp	(>16gg\LL	fp	2.r	.	2.r	.	4e 4E\	.	2.r	.	4ee/	4b\	.	4gg 4b\	.	(>16gg\LL	fp	4gg\	.
.	.	.	.	.	.	.	.	16ff#\	.	.	.	.	.	.	.	.	.	.	.	.	.	.	16ff#\	.	.	.
.	.	8E\	.	8e\L	.	8gL 8B/	.	16gg'>\)	.	.	.	.	.	.	.	.	.	.	.	.	.	.	16gg'>\)	.	.	.
.	.	.	.	.	.	.	.	16dd#X'>\JJ	.	.	.	.	.	.	.	.	.	.	.	.	.	.	16dd#X'>\JJ	.	.	.
.	.	8E\	.	8e\	.	8g 8B/	.	4.ee\	.	.	.	.	.	4r	.	.	.	4r	4ryy	.	4r	.	4.ee\	.	4r	.
.	.	8E\	.	8e\	.	8g 8B/	.	.	.	.	.	.	.	.	.	.	.	.	.	.	.	.	.	.	.	.
.	.	8E\	.	8e\	.	8g 8B/	.	.	.	.	.	.	.	4r	.	.	.	4r	4ryy	.	4r	.	.	.	4r	.
.	.	8E\J	.	8e\J	.	8gJ 8B/	.	8r	.	.	.	.	.	.	.	.	.	.	.	.	.	.	8b\	.	.	.
=8	=8	=8	=8	=8	=8	=8	=8	=8	=8	=8	=8	=8	=8	=8	=8	=8	=8	=8	=8	=8	=8	=8	=8	=8	=8	=8
*	*	*	*	*tremolo	*	*tremolo	*	*	*	*	*	*	*	*	*	*	*	*	*	*	*	*	*	*	*	*
!	!	!	!	!	!	!	!	!	!	!	!	!	!	!	!	!	!	!	!	!	!	!	!LO:TX:a:Bi:t=Col V&colon;1mo	!	!	!
!	!	!	!LO:DY:b:rj	!	!LO:DY:b:rj	!	!LO:DY:b:rj	!	!LO:DY:b:rj	!	!	!	!	!	!	!	!	!	!	!	!	!	!	!LO:DY:b:rj	!	!
2.ryy	.	8E\L	fp	8e\L	fp	8gL 8B/	fp	(>16gg\LL	fp	2.r	.	2.r	.	4e 4E\	.	2.r	.	4g/	4e\	.	4gg 4b\	.	(y>16gg\LLyy	fpy	2.r	.
.	.	.	.	.	.	.	.	16ff#\	.	.	.	.	.	.	.	.	.	.	.	.	.	.	16ff#\yy	.	.	.
.	.	8E\	.	8e\	.	8g 8B/	.	16gg'>\)	.	.	.	.	.	.	.	.	.	.	.	.	.	.	16gg'>\)yy	.	.	.
.	.	.	.	.	.	.	.	16dd#X'>\JJ	.	.	.	.	.	.	.	.	.	.	.	.	.	.	16dd#X'>\JJyy	.	.	.
.	.	8E\	.	8e\	.	8g 8B/	.	8ee\L	.	.	.	.	.	4r	.	.	.	4r	4ryy	.	4r	.	8ee\Lyy	.	.	.
.	.	.	.	.	.	.	.	16qqff#/	.	.	.	.	.	.	.	.	.	.	.	.	.	.	16qqff#/yy	.	.	.
.	.	8E\	.	8e\	.	8g 8B/	.	16ee\L	.	.	.	.	.	.	.	.	.	.	.	.	.	.	16ee\Lyy	.	.	.
.	.	.	.	.	.	.	.	16dd#\JJ	.	.	.	.	.	.	.	.	.	.	.	.	.	.	16dd#\JJyy	.	.	.
.	.	8E\	.	8e\	.	8g 8B/	.	16ee\LL	.	.	.	.	.	4r	.	.	.	4r	4ryy	.	4r	.	16ee\LLyy	.	.	.
.	.	.	.	.	.	.	.	16ff#\	.	.	.	.	.	.	.	.	.	.	.	.	.	.	16ff#\yy	.	.	.
.	.	8E\J	.	8e\J	.	8gJ 8B/	.	16gg\	.	.	.	.	.	.	.	.	.	.	.	.	.	.	16gg\yy	.	.	.
.	.	.	.	.	.	.	.	16aa\JJ	.	.	.	.	.	.	.	.	.	.	.	.	.	.	16aa\JJyy	.	.	.
*	*	*Xtremolo	*	*Xtremolo	*	*Xtremolo	*	*	*	*	*	*	*	*	*	*	*	*	*	*	*	*	*	*	*	*
*	*	*	*	*	*	*	*	*	*	*	*	*	*	*	*	*	*	*v	*v	*	*	*	*	*	*	*
=9	=9	=9	=9	=9	=9	=9	=9	=9	=9	=9	=9	=9	=9	=9	=9	=9	=9	=9	=9	=9	=9	=9	=9	=9	=9
!	!	!	!	!	!	!	!LO:DY:b:rj	!	!	!	!	!	!	!	!LO:DY:b:rj	!	!	!	!LO:DY:b:rj	!	!	!	!	!	!
2.ryy	.	8E'>\L	.	8e'>\L	.	8gL 8B'</	p	8bb'>\L	.	2.r	.	2.r	.	8BL 8E'>\	p	2.r	.	8gL 8e'</	p	2.r	.	8bb'>\Lyy	.	2.r	.
.	.	8D#'>\J	.	8f#'>\J	.	8aJ 8B'</	.	(>16cccn\L	.	.	.	.	.	8BJ 8D#X'>\	.	.	.	8aJ 8f#'</	.	.	.	(y>16cccn\Lyy	.	.	.
.	.	.	.	.	.	.	.	16bb\JJ)	.	.	.	.	.	.	.	.	.	.	.	.	.	16bb\JJ)yy	.	.	.
*	*	*rep	*	*rep	*	*rep	*	*	*	*	*	*	*	*rep	*	*	*	*rep	*	*	*	*	*	*	*
.	.	8E'>\L	.	8e'>\L	.	8gL 8B'</	.	(>16bb\LL	.	.	.	.	.	8BL 8E'>\	.	.	.	8gL 8e'</	.	.	.	(y>16bb\LLyy	.	.	.
.	.	.	.	.	.	.	.	16ccc\)	.	.	.	.	.	.	.	.	.	.	.	.	.	16ccc\)yy	.	.	.
.	.	8D#'>\J	.	8f#'>\J	.	8aJ 8B'</	.	(>16ccc\	.	.	.	.	.	8BJ 8D#'>\	.	.	.	8aJ 8f#'</	.	.	.	(y>16ccc\yy	.	.	.
.	.	.	.	.	.	.	.	16bb\JJ)	.	.	.	.	.	.	.	.	.	.	.	.	.	16bb\JJ)yy	.	.	.
*	*	*Xrep	*	*Xrep	*	*Xrep	*	*	*	*	*	*	*	*Xrep	*	*	*	*Xrep	*	*	*	*	*	*	*
*	*	*rep	*	*rep	*	*rep	*	*	*	*	*	*	*	*rep	*	*	*	*rep	*	*	*	*	*	*	*
.	.	8E'>\L	.	8e'>\L	.	8gL 8B'</	.	(>16bb\LL	.	.	.	.	.	8BL 8E'>\	.	.	.	8gL 8e'</	.	.	.	(y>16bb\LLyy	.	.	.
.	.	.	.	.	.	.	.	16ccc\)	.	.	.	.	.	.	.	.	.	.	.	.	.	16ccc\)yy	.	.	.
.	.	8D#'>\J	.	8f#'>\J	.	8aJ 8B'</	.	(>16ccc\	.	.	.	.	.	8BJ 8D#'>\	.	.	.	8aJ 8f#'</	.	.	.	(y>16ccc\yy	.	.	.
.	.	.	.	.	.	.	.	16bb\JJ)	.	.	.	.	.	.	.	.	.	.	.	.	.	16bb\JJ)yy	.	.	.
*	*	*Xrep	*	*Xrep	*	*Xrep	*	*	*	*	*	*	*	*Xrep	*	*	*	*Xrep	*	*	*	*	*	*	*
=10	=10	=10	=10	=10	=10	=10	=10	=10	=10	=10	=10	=10	=10	=10	=10	=10	=10	=10	=10	=10	=10	=10	=10	=10	=10
*	*	*	*	*	*	*	*	*	*	*	*	*	*	*	*	*	*	*	*	*^	*	*	*	*	*
*	*	*tremolo	*	*tremolo	*	*tremolo	*	*	*	*	*	*	*	*tremolo	*	*	*	*tremolo	*	*	*	*	*	*	*	*
2.ryy	.	8E\L	.	8e\L	.	8gL 8B/	.	(>16bb\LL	.	2.r	.	2.r	.	8BL 8E\	.	2.ryy	.	8gL 8e/	.	4r	2ryy	.	(y>16bb\LLyy	.	2.r	.
.	.	.	.	.	.	.	.	16aa\)	.	.	.	.	.	.	.	.	.	.	.	.	.	.	16aa\)yy	.	.	.
.	.	8E\	.	8e\	.	8g 8B/	.	(>16aa\	.	.	.	.	.	8B 8E\	.	.	.	8g 8e/	.	.	.	.	(y>16aa\yy	.	.	.
.	.	.	.	.	.	.	.	16gg\JJ)	.	.	.	.	.	.	.	.	.	.	.	.	.	.	16gg\JJ)yy	.	.	.
.	.	8E\	.	8e\	.	8g 8B/	.	(>16gg\LL	.	.	.	.	.	8B 8E\	.	.	.	8g 8e/	.	4r	.	.	(y>16gg\LLyy	.	.	.
.	.	.	.	.	.	.	.	16ff#\)	.	.	.	.	.	.	.	.	.	.	.	.	.	.	16ff#\)yy	.	.	.
.	.	8E\J	.	8e\J	.	8gJ 8B/	.	(>16ff#\	.	.	.	.	.	8BJ 8E\	.	.	.	8gJ 8e/	.	.	.	.	(y>16ff#\yy	.	.	.
.	.	.	.	.	.	.	.	16ee\JJ)	.	.	.	.	.	.	.	.	.	.	.	.	.	.	16ee\JJ)yy	.	.	.
*	*	*Xtremolo	*	*Xtremolo	*	*Xtremolo	*	*	*	*	*	*	*	*Xtremolo	*	*	*	*Xtremolo	*	*	*	*	*	*	*	*
.	.	8E\L	.	8e\L	.	8gL 8B/	.	8ee'>\L	.	.	.	.	.	8BL 8E\	.	.	.	8gL 8e/	.	8r	8ryy	.	8ee\	.	.	.
.	.	(>8BB-J\	>	(>8B-J	>	(8B-X/J	>	(>8b-X\J	>	.	.	.	.	8B-XJ 8BB-X\	>	.	.	(>8b-XJ &(<8B-X/	>	(>8b-X/	8b-\	>	8r	.	.	.
!!LO:PB:g=original
=11	=11	=11	=11	=11	=11	=11	=11	=11	=11	=11	=11	=11	=11	=11	=11	=11	=11	=11	=11	=11	=11	=11	=11	=11	=11	=11
!	!	!LO:TX:a:t=P:problem:mixed beam	!	!	!	!	!	!	!	!	!	!	!	!	!	!	!	!	!	!	!	!	!	!	!	!
!	!	!	!	!	!	!	!	!	!	!	!	!	!	!	!	!	!	!LO:S:s=1:note:problem:note-level slur	!	!	!	!	!	!	!	!
!	!	!	!	!	!	!	!	!	!	!	!	!	!	!	!	!	!	!LO:S:s=2:note:problem:note-level slur	!	!	!	!	!	!	!	!
!	!	!	!	!	!	!	!	!	!	!	!LO:DY:b:rj	!	!LO:DY:b:rj	!	!	!	!LO:DY:b:rj	!	!	!	!	!	!	!	!	!
2.ryy	.	8AA/L)	]	8A\L)	]	8A/L)	]	8a'>\L)	]	4AA/	p	4a 4A/	p	4A 4AA\	]	4a 4A/	p	4a) 4A/&)	]	4a/)	4a\	]	8a'</L	.	2.r	.
.	.	8A\J	p	8c#\J	p	8gJ 8e/	p	16gg'>\L	.	.	.	.	.	.	.	.	.	.	.	.	.	.	16gg'</L	.	.	.
.	.	.	.	.	.	.	.	16dd#X'>\JJ	.	.	.	.	.	.	.	.	.	.	.	.	.	.	16dd#X'</JJ	.	.	.
*	*	*	*	*tremolo	*	*tremolo	*	*	*	*	*	*	*	*	*	*	*	*	*	*	*	*	*	*	*	*
.	.	8A\L	.	8c#\L	.	8gL 8e/	.	4.ee\	.	4r	.	4r	.	8r	.	4r	.	16r	.	4r	4ryy	.	4.ee/	.	.	.
.	.	.	.	.	.	.	.	.	.	.	.	.	.	.	.	.	.	(<16A/LL	.	.	.	.	.	.	.	.
.	.	8A\	.	8c#\	.	8g 8e/	.	.	.	.	.	.	.	8AL 8AA'>\	.	.	.	16c#/	.	.	.	.	.	.	.	.
.	.	.	.	.	.	.	.	.	.	.	.	.	.	.	.	.	.	16e/JJ	.	.	.	.	.	.	.	.
.	.	8A\	.	8c#\	.	8g 8e/	.	.	.	4r	.	4r	.	8A 8AA'>\	.	8r	.	4gX/)	.	4r	4ryy	.	.	.	.	.
.	.	8B-X^<\J	.	8c#\J	.	8gJ 8e/	.	8cc#\	.	.	.	.	.	(>8B-XJ &(>8BB-X\	>	16ggLL 16ee\	.	.	.	.	.	.	8cc#/	.	.	.
.	.	.	.	.	.	.	.	.	.	.	.	.	.	.	.	16ggJJ 16ee\	.	.	.	.	.	.	.	.	.	.
*	*	*	*	*	*	*	*	*	*	*	*	*	*	*	*	*	*	*	*	*v	*v	*	*	*	*	*
=12	=12	=12	=12	=12	=12	=12	=12	=12	=12	=12	=12	=12	=12	=12	=12	=12	=12	=12	=12	=12	=12	=12	=12	=12	=12
!	!	!	!	!	!	!	!	!	!	!	!	!	!	!	!	!	!	!	!	!	!	!LO:TX:a:Bi:t=Col Vno 1	!	!	!
!	!	!	!	!	!	!	!	!	!	!	!	!	!	!LO:S:s=1:note:problem:note-level slur	!	!	!	!	!	!	!	!	!	!	!
!	!	!	!	!	!	!	!	!	!	!	!	!	!	!LO:S:s=2:note:problem:note-level slur	!	!	!	!	!	!	!	!	!	!	!
2.ryy	.	8A\L	.	8c#\L	.	8gL 8e/	.	16a'>\LL	.	2.r	.	2.r	.	4A) 4AA\&)	]	4gg 4ee\	.	4r	.	2.r	.	16a'>\LLyy	.	2.r	.
.	.	.	.	.	.	.	.	(>16ff#\	.	.	.	.	.	.	.	.	.	.	.	.	.	(y>16ff#\yy	.	.	.
.	.	8A\	.	8c#\	.	8g 8e/	.	16gg\)	.	.	.	.	.	.	.	.	.	.	.	.	.	16gg\)yy	.	.	.
.	.	.	.	.	.	.	.	16dd#X'>\JJ	.	.	.	.	.	.	.	.	.	.	.	.	.	16dd#X\JJyy	.	.	.
.	.	8A\	.	8c#\	.	8g 8e/	.	4.ee\	.	.	.	.	.	8r	.	4r	.	16r	.	.	.	4.ee'>\yy	.	.	.
.	.	.	.	.	.	.	.	.	.	.	.	.	.	.	.	.	.	(<16A/LL	.	.	.	.	.	.	.
.	.	8A\	.	8c#\	.	8g 8e/	.	.	.	.	.	.	.	8AL 8AA\	.	.	.	16c#/	.	.	.	.	.	.	.
.	.	.	.	.	.	.	.	.	.	.	.	.	.	.	.	.	.	16e/JJ	.	.	.	.	.	.	.
.	.	8A\	.	8c#\	.	8g 8e/	.	.	.	.	.	.	.	8A 8AA\	.	8r	.	4g/)	.	.	.	.	.	.	.
.	.	8B-X^<\J	.	8c#\J	.	8gJ 8e/	.	8cc#\	.	.	.	.	.	(>8B-XJ &(>8BB-X\	>	16ggLL 16ee\	.	.	.	.	.	8cc#\yy	.	.	.
.	.	.	.	.	.	.	.	.	.	.	.	.	.	.	.	16ggJJ 16ee\	.	.	.	.	.	.	.	.	.
=13	=13	=13	=13	=13	=13	=13	=13	=13	=13	=13	=13	=13	=13	=13	=13	=13	=13	=13	=13	=13	=13	=13	=13	=13	=13
!	!	!	!	!	!	!	!	!	!	!	!	!	!	!LO:S:s=1:note:problem:note-level slur	!	!	!	!	!	!	!	!	!	!	!
!	!	!	!	!	!	!	!	!	!	!	!	!	!	!LO:S:s=2:note:problem:note-level slur	!	!	!	!	!	!	!	!	!	!	!
2.ryy	.	8A\L	.	8c#\L	.	8gL 8e/	.	8a'>\L	.	2.r	.	2.r	.	8AL) 8AA\&)	]	4gg 4ee\	.	8r	.	2.r	.	8a'>\Lyy	.	2.r	.
.	.	8A\	p	8c#\	.	8g 8e/	.	(>16bb-X\L	.	.	.	.	.	8AJ 8AA'\	p	.	.	8g 8e/	.	.	.	(y>16aa#X\Lyy	.	.	.
.	.	.	.	.	.	.	.	16aa\JJ)	.	.	.	.	.	.	.	.	.	.	.	.	.	16aan\JJ)yy	.	.	.
*	*	*	*	*	*	*	*	*	*	*	*	*	*	*	*	*	*	*tremolo	*	*	*	*	*	*	*
.	.	8c#\	.	8c#\	.	8g 8e/	.	(>16aa\LL	.	.	.	.	.	8c#L 8C#'>\	.	4r	.	8gL 8e/	.	.	.	(y>16aa\LLyy	.	.	.
.	.	.	.	.	.	.	.	16bbn\)	.	.	.	.	.	.	.	.	.	.	.	.	.	16bb\)yy	.	.	.
.	.	8A\	.	8c#\	.	8g 8e/	.	(>16bb\	.	.	.	.	.	8A 8AA'>\	.	.	.	8g 8e/	.	.	.	(y>16bb\yy	.	.	.
.	.	.	.	.	.	.	.	16aa\JJ)	.	.	.	.	.	.	.	.	.	.	.	.	.	16aa\JJ)yy	.	.	.
.	.	8c#\	.	8c#\	.	8g 8e/	.	(>16aa\LL	.	.	.	.	.	8c# 8C#'>\	.	4r	.	8g 8e/	.	.	.	(y>16aa\LLyy	.	.	.
.	.	.	.	.	.	.	.	16bb-X\)	.	.	.	.	.	.	.	.	.	.	.	.	.	16aa#X\)yy	.	.	.
.	.	8A\J	.	8c#\J	.	8gJ 8e/	.	(>16bb-\	.	.	.	.	.	8AJ 8AA'>\	.	.	.	8gJ 8e/	.	.	.	(y>16aa#\yy	.	.	.
.	.	.	.	.	.	.	.	16aa\JJ)	.	.	.	.	.	.	.	.	.	.	.	.	.	16aan\JJ)yy	.	.	.
*	*	*	*	*	*	*	*	*	*	*	*	*	*	*	*	*	*	*Xtremolo	*	*	*	*	*	*	*
=14	=14	=14	=14	=14	=14	=14	=14	=14	=14	=14	=14	=14	=14	=14	=14	=14	=14	=14	=14	=14	=14	=14	=14	=14	=14
*	*	*tremolo	*	*	*	*	*	*	*	*	*	*	*	*tremolo	*	*	*	*	*	*	*	*	*	*	*
2.ryy	.	8d\L	.	8d\L	.	8f#L 8A/	.	(>16aa\LL	.	2.r	.	2.r	.	8dL 8D\	.	8r	.	4f# 4d/	.	2.r	.	(y>16aa\LLyy	.	2.r	.
.	.	.	.	.	.	.	.	16ddd\)	.	.	.	.	.	.	.	.	.	.	.	.	.	16ddd\)yy	.	.	.
.	.	8d\	.	8d\	.	8f# 8A/	.	(>16ddd\	.	.	.	.	.	8d 8D\	.	8ff#L 8dd\	.	.	.	.	.	(y>16ddd\yy	.	.	.
.	.	.	.	.	.	.	.	16gg#X\JJ)	.	.	.	.	.	.	.	.	.	.	.	.	.	16gg#X\JJ)yy	.	.	.
.	.	8d\	.	8d\	.	8f# 8A/	.	(>32gg#\KLL	.	.	.	.	.	8d 8D\	.	8ff# 8dd\	.	4r	.	.	.	(y>32gg#\KLLyy	.	.	.
.	.	.	.	.	.	.	.	16.aa\)	.	.	.	.	.	.	.	.	.	.	.	.	.	16.aa\)yy	.	.	.
.	.	8d\J	.	8d\J	.	8f#J 8A/	.	(>32ee#X\K	.	.	.	.	.	8dJ 8D\	.	8ff#J 8dd\	.	.	.	.	.	(y>32ff#\Kyy	.	.	.
.	.	.	.	.	.	.	.	16.ff#\JJ)	.	.	.	.	.	.	.	.	.	.	.	.	.	16.ggn\JJ)yy	.	.	.
*	*	*Xtremolo	*	*Xtremolo	*	*Xtremolo	*	*	*	*	*	*	*	*Xtremolo	*	*	*	*	*	*	*	*	*	*	*
.	.	8d\	.	8d\	.	8f# 8A/	.	8dd\	.	.	.	.	.	8d 8D\	.	8ff# 8dd\	.	4r	.	.	.	8dd\yy	.	.	.
.	.	8r	.	8r	.	8r	.	16r	.	.	.	.	.	8r	.	8r	.	.	.	.	.	16ryy	.	.	.
!	!	!	!	!	!	!	!	!	!LO:DY:b:rj	!	!	!	!	!	!	!	!	!	!	!	!	!	!LO:DY:b:rj	!	!
.	.	.	.	.	.	.	.	16ff# 16a\	f	.	.	.	.	.	.	.	.	.	.	.	.	16ff#yy 16a\yy	fyy	.	.
=15	=15	=15	=15	=15	=15	=15	=15	=15	=15	=15	=15	=15	=15	=15	=15	=15	=15	=15	=15	=15	=15	=15	=15	=15	=15
*	*	*tremolo	*	*tremolo	*	*tremolo	*	*	*	*tremolo	*	*	*	*tremolo	*	*	*	*	*	*	*	*	*	*	*
!	!	!	!	!	!	!	!	!	!	!	!	!	!	!	!	!	!	!	!	!	!	!LO:TX:a:Bi:t=Sempre Col V&colon;1:rj	!	!	!
!	!	!	!LO:DY:b:rj	!	!LO:DY:b:rj	!	!LO:DY:b:rj	!	!	!	!LO:DY:b:rj	!	!LO:DY:b:rj	!	!LO:DY:b:rj	!	!LO:DY:b:rj	!	!LO:DY:b:rj	!	!LO:DY:b:rj	!	!	!	!LO:DY:a:rj
2.ryy	.	8D/L	ff	16aLL 16d\	ff	16aLL 16f#	ff	16ff#LL 16a\	.	16D\LL	f	2.a 2.B/	f	8dL 8D\	f	2.ff# 2.dd\	f	2.ff# 2.dd\	f	2.aa 2.a\	f	16ff#LLyy 16a\yy	.	(>16ff#\LL	f
.	.	.	.	16a 16d\	.	16a 16f#/	.	16gg\	.	16D\	.	.	.	.	.	.	.	.	.	.	.	16gg\yy	.	16gg\	.
.	.	8AA/	.	16a 16d\	.	16a 16f#/	.	16aa\	.	16D\	.	.	.	8A 8AA\	.	.	.	.	.	.	.	16aa\yy	.	16aa\	.
.	.	.	.	16a 16d\	.	16a 16f#/	.	16bb\JJ	.	16D\	.	.	.	.	.	.	.	.	.	.	.	16bb\JJyy	.	16bb\JJ	.
.	.	8D/	.	16a 16d\	.	16a 16f#/	.	8aa'>\L	.	16D\	.	.	.	8d 8D\	.	.	.	.	.	.	.	8aa'>\Lyy	.	8aa\L)	.
.	.	.	.	16a 16d\	.	16a 16f#/	.	.	.	16D\	.	.	.	.	.	.	.	.	.	.	.	.	.	.	.
.	.	8AA/	.	16a 16d\	.	16a 16f#/	.	8ff#'>\	.	16D\	.	.	.	8A 8AA\	.	.	.	.	.	.	.	8ff#'>\yy	.	8fff#'>\	.
.	.	.	.	16a 16d\	.	16a 16f#/	.	.	.	16D\	.	.	.	.	.	.	.	.	.	.	.	.	.	.	.
.	.	8D/	.	16a 16d\	.	16a 16f#/	.	8dd'>\	.	16D\	.	.	.	8d 8D\	.	.	.	.	.	.	.	8dd'>\yy	.	8ddd'>\	.
.	.	.	.	16a 16d\	.	16a 16f#/	.	.	.	16D\	.	.	.	.	.	.	.	.	.	.	.	.	.	.	.
.	.	8AA/J	.	16a 16d\	.	16a 16f#/	.	8ee'>\J	.	16D\	.	.	.	8AJ 8AA\	.	.	.	.	.	.	.	8ee'>\Jyy	.	8eee'>\J	.
.	.	.	.	16aJJ 16d\	.	16aJJ 16f#/	.	.	.	16D\JJ	.	.	.	.	.	.	.	.	.	.	.	.	.	.	.
*	*	*	*	*	*	*	*	*	*	*Xtremolo	*	*	*	*	*	*	*	*	*	*	*	*	*	*	*
=16	=16	=16	=16	=16	=16	=16	=16	=16	=16	=16	=16	=16	=16	=16	=16	=16	=16	=16	=16	=16	=16	=16	=16	=16	=16
2.ryy	.	8C#/L	.	16aLL 16e\	.	16aLL 16g/	.	(>16ee\LL	.	8AA/	.	8a 8A/	.	8c#L 8C#\	.	8ee 8a\	.	8gg 8ee\	.	8aa 8a\	.	(y>16ee\LLyy	.	(>16eee\LL	.
.	.	.	.	16a 16e\	.	16a 16g/	.	16a\JJ)	.	.	.	.	.	.	.	.	.	.	.	.	.	16a\JJ)yy	.	16aa\JJ)	.
.	.	8AA/	.	16a 16e\	.	16a 16g/	.	4a^>\	.	8r	.	8r	.	8A 8AA\	.	8r	.	8r	.	8r	.	4a^>\yy	.	4aa^>\	.
.	.	.	.	16a 16e\	.	16a 16g/	.	.	.	.	.	.	.	.	.	.	.	.	.	.	.	.	.	.	.
.	.	8C#/	.	16a 16e\	.	16a 16g/	.	.	.	8AA/	.	8a 8A/	.	8c# 8C#\	.	8ee 8a\	.	8gg 8ee\	.	8aa 8a\	.	.	.	.	.
.	.	.	.	16a 16e\	.	16a 16g/	.	.	.	.	.	.	.	.	.	.	.	.	.	.	.	.	.	.	.
.	.	.	.	.	.	.	.	16qqcc#/	.	.	.	.	.	.	.	.	.	.	.	.	.	.	.	16qqccc#/	.
.	.	8AA/	.	16a 16e\	.	16a 16g/	.	(>16b\LL	.	8r	.	8r	.	8A 8AA\	.	8r	.	8r	.	8r	.	(y>16b\LLyy	.	(>16bb\LL	.
.	.	.	.	16a 16e\	.	16a 16g/	.	16a\JJ)	.	.	.	.	.	.	.	.	.	.	.	.	.	16a\JJ)yy	.	16aa\JJ)	.
.	.	8C#/	.	16a 16e\	.	16a 16g/	.	16b\LL	.	8AA/	.	8a 8A/	.	8c# 8C#\	.	8ee 8a\	.	8gg 8ee\	.	8aa 8a\	.	16b\LLyy	.	16bb\LL	.
.	.	.	.	16a 16e\	.	16a 16g/	.	16cc#\	.	.	.	.	.	.	.	.	.	.	.	.	.	16cc#\yy	.	16ccc#\	.
.	.	8AA/J	.	16a 16e\	.	16a 16g/	.	16dd\	.	8r	.	8r	.	8AJ 8AA\	.	8r	.	8r	.	8r	.	16dd\yy	.	16ddd\	.
.	.	.	.	16aJJ 16e\	.	16aJJ 16g/	.	16ee\JJ	.	.	.	.	.	.	.	.	.	.	.	.	.	16ee\JJyy	.	16eee\JJ	.
=17	=17	=17	=17	=17	=17	=17	=17	=17	=17	=17	=17	=17	=17	=17	=17	=17	=17	=17	=17	=17	=17	=17	=17	=17	=17
*	*	*	*	*	*	*	*	*	*	*tremolo	*	*	*	*	*	*	*	*	*	*	*	*	*	*	*
2.ryy	.	8D/L	.	16aLL 16d\	.	16aLL 16f#/	.	16ff#\LL	.	16D\LL	.	2.a 2.B/	.	8dL 8D\	.	2.ff# 2.dd\	.	2.ff# 2.dd\	.	2.aa 2.a\	.	16ff#\LLyy	.	8fff#'>\L	.
.	.	.	.	16a 16d\	.	16a 16f#/	.	16gg\	.	16D\	.	.	.	.	.	.	.	.	.	.	.	16gg\yy	.	.	.
.	.	8AA/	.	16a 16d\	.	16a 16f#/	.	16aa\	.	16D\	.	.	.	8A 8AA\	.	.	.	.	.	.	.	16aa\yy	.	(>16aa\L	.
.	.	.	.	16a 16d\	.	16a 16f#/	.	16bb\JJ	.	16D\	.	.	.	.	.	.	.	.	.	.	.	16bb\JJyy	.	16bb\JJ	.
.	.	8D/	.	16a 16d\	.	16a 16f#/	.	8aa\L	.	16D\	.	.	.	8d 8D\	.	.	.	.	.	.	.	8aa\Lyy	.	8aa\L)	.
.	.	.	.	16a 16d\	.	16a 16f#/	.	.	.	16D\	.	.	.	.	.	.	.	.	.	.	.	.	.	.	.
.	.	8AA/	.	16a 16d\	.	16a 16f#/	.	8ff#'>\	.	16D\	.	.	.	8A 8AA\	.	.	.	.	.	.	.	8ff#'>\yy	.	8fff#'>\	.
.	.	.	.	16a 16d\	.	16a 16f#/	.	.	.	16D\	.	.	.	.	.	.	.	.	.	.	.	.	.	.	.
.	.	8D/	.	16a 16d\	.	16a 16f#/	.	8dd'>\	.	16D\	.	.	.	8d 8D\	.	.	.	.	.	.	.	8dd'>\yy	.	8ddd'>\	.
.	.	.	.	16a 16d\	.	16a 16f#/	.	.	.	16D\	.	.	.	.	.	.	.	.	.	.	.	.	.	.	.
.	.	8AA/J	.	16a 16d\	.	16a 16f#/	.	8ee'>\J	.	16D\	.	.	.	8AJ 8AA\	.	.	.	.	.	.	.	8ee'>\Jyy	.	8eee'>\J	.
.	.	.	.	16aJJ 16d\	.	16aJJ 16f#/	.	.	.	16D\JJ	.	.	.	.	.	.	.	.	.	.	.	.	.	.	.
*	*	*	*	*	*	*	*	*	*	*Xtremolo	*	*	*	*	*	*	*	*	*	*	*	*	*	*	*
=18	=18	=18	=18	=18	=18	=18	=18	=18	=18	=18	=18	=18	=18	=18	=18	=18	=18	=18	=18	=18	=18	=18	=18	=18	=18
2.ryy	.	8C#/L	.	16aLL 16e\	.	16aLL 16g/	.	(>16ee\LL	.	8AA/	.	8a 8A/	.	8c#L 8C#\	.	8ee 8a/	.	8gg 8ee\	.	8aa 8a\	.	(y>16ee\LLyy	.	(>16eee\LL	.
.	.	.	.	16a 16e\	.	16a 16g/	.	16a\JJ)	.	.	.	.	.	.	.	.	.	.	.	.	.	16a\JJ)yy	.	16aa\JJ)	.
.	.	8AA/	.	16a 16e\	.	16a 16g/	.	4a^>\	.	8r	.	8r	.	8A 8AA\	.	8r	.	8r	.	8r	.	4a^>\yy	.	4aa^<\	.
.	.	.	.	16a 16e\	.	16a 16g/	.	.	.	.	.	.	.	.	.	.	.	.	.	.	.	.	.	.	.
.	.	8C#/	.	16a 16e\	.	16a 16g/	.	.	.	8AA/	.	8a 8A/	.	8c# 8C#\	.	8ee 8a/	.	8gg 8ee\	.	8aa 8a\	.	.	.	.	.
.	.	.	.	16a 16e\	.	16a 16g/	.	.	.	.	.	.	.	.	.	.	.	.	.	.	.	.	.	.	.
.	.	.	.	.	.	.	.	16qqcc#/	.	.	.	.	.	.	.	.	.	.	.	.	.	16qqcc#yy	.	16qqccc#/	.
.	.	8AA/	.	16a 16e\	.	16a 16g/	.	16b\LL	.	8r	.	8r	.	8A 8AA\	.	8r	.	8r	.	8r	.	16b\LLyy	.	16bb\LL	.
.	.	.	.	16a 16e\	.	16a 16g/	.	16a\JJ	.	.	.	.	.	.	.	.	.	.	.	.	.	16a\JJyy	.	16aa\JJ	.
.	.	8C#/	.	16a 16e\	.	16a 16g/	.	16b\LL	.	8AA/	.	8a 8A/	.	8c# 8C#\	.	8ee 8a/	.	8gg 8ee\	.	8aa 8a\	.	16b\LLyy	.	16bb\LL	.
.	.	.	.	16a 16e\	.	16a 16g/	.	16cc#\	.	.	.	.	.	.	.	.	.	.	.	.	.	16cc#\yy	.	16ccc#\	.
.	.	8AA/J	.	16a 16e\	.	16a 16g/	.	16dd\	.	8r	.	8r	.	8AJ 8AA\	.	8r	.	8r	.	8r	.	16dd\yy	.	16ddd\	.
.	.	.	.	16aJJ 16e\	.	16aJJ 16g/	.	16ee\JJ	.	.	.	.	.	.	.	.	.	.	.	.	.	16ee\JJyy	.	16eee\JJ	.
*	*	*Xtremolo	*	*Xtremolo	*	*Xtremolo	*	*	*	*	*	*	*	*Xtremolo	*	*	*	*	*	*	*	*	*	*	*
=19	=19	=19	=19	=19	=19	=19	=19	=19	=19	=19	=19	=19	=19	=19	=19	=19	=19	=19	=19	=19	=19	=19	=19	=19	=19
*	*	*	*	*	*	*	*	*	*	*	*	*	*	*	*	*	*	*^	*	*	*	*	*	*	*
2.ryy	.	4D/	.	8aL 8d\	.	8aL 8f#/	.	8ff#\L	.	4D\	.	4a 4d/	.	4d 4D\	.	4ff# 4dd\	.	8ff#/L	8dd\L	.	8ff#L 8a/	.	8ff#\Lyy	.	8fff#\L	.
.	.	.	.	16a\L	.	16ccn/L	.	16ff#\L	.	.	.	.	.	.	.	.	.	16ccX/L	16a\L	.	16ff#L 16ccn/	.	16ff#\Lyy	.	16fff#\L	.
.	.	.	.	16a\JJ	.	16cc/JJ	.	16ff#\JJ	.	.	.	.	.	.	.	.	.	16cc/JJ	16a\JJ	.	16ff#JJ 16cc/	.	16ff#\JJyy	.	16fff#\JJ	.
!	!	!	!	!	!LO:DY:b:rj	!	!LO:DY:b:rj	!	!LO:DY:b:rj	!	!	!	!	!	!	!	!	!	!	!	!	!	!	!LO:DY:b:rj	!	!
.	.	8r	.	4.a\	sf >	4.cc/	sf >	4.ff#\	sf >	4r	.	4r	.	8r	.	4r	.	4.cc/	4.a\	>	4.ff# 4.cc/	>	4.ff#\yy	sfy >	4.fff#\	>
.	.	16D#X/LL	>	.	.	.	.	.	.	.	.	.	.	16d#XLL 16D#X\	>	.	.	.	.	.	.	.	.	.	.	.
.	.	16D#/JJ	.	.	.	.	.	.	.	.	.	.	.	16d#JJ 16D#\	.	.	.	.	.	.	.	.	.	.	.	.
.	.	8D#/L	.	.	.	.	.	.	.	4r	.	4r	.	8d#L 8D#\	]	4r	.	.	.	.	.	.	.	.	.	.
.	.	8D#/J	]	8b\	]	8b/	]	8ff#\	]	.	.	.	.	8d#J 8D#\	.	.	.	8b/	8b\	]	8ff# 8b/	]	8ff#\yy	]	8fff#\	]
=20	=20	=20	=20	=20	=20	=20	=20	=20	=20	=20	=20	=20	=20	=20	=20	=20	=20	=20	=20	=20	=20	=20	=20	=20	=20	=20
2.ryy	.	4E/	.	8b\L	.	8b/L	.	8gg\L	.	2.r	.	2.r	.	4e 4E\	.	2.r	.	8b/L	8b\L	.	8ggL 8b/	.	8gg\Lyy	.	8ggg\L	.
.	.	.	.	16b\L	.	16dd/L	.	16gg#X\L	.	.	.	.	.	.	.	.	.	16dd/L	16b\L	.	16gg#XL 16dd/	.	16gg#X\Lyy	.	16ggg#X\L	.
.	.	.	.	16b\JJ	.	16dd/JJ	.	16gg#\JJ	.	.	.	.	.	.	.	.	.	16dd/JJ	16b\JJ	.	16gg#JJ 16dd/	.	16gg#\JJyy	.	16ggg#\JJ	.
!	!	!	!	!	!LO:DY:b:rj	!	!	!	!	!	!	!	!	!	!	!	!	!	!	!	!	!	!	!	!	!
.	.	8r	.	4.b\	sf >	4.dd/	sf >	4.gg#\	sf >	.	.	.	.	8r	.	.	.	4.dd/	4.b\	>	4.gg# 4.dd/	>	4.gg#\yy	sfy >	4.ggg#\	>
.	.	16E#X/LL	>	.	.	.	.	.	.	.	.	.	.	16e#XLL 16E#X\	>	.	.	.	.	.	.	.	.	.	.	.
.	.	16E#/JJ	.	.	.	.	.	.	.	.	.	.	.	16e#JJ 16E#\	.	.	.	.	.	.	.	.	.	.	.	.
.	.	8E#/L	.	.	.	.	.	.	.	.	.	.	.	8e#L 8E#\	]	.	.	.	.	.	.	.	.	.	.	.
.	.	8E#/J	]	8cc#\	]	8cc#X/	]	8gg#\	]	.	.	.	.	8e#J 8E#\	.	.	.	8cc#/	8cc#\	]	8gg# 8cc#X/	]	8gg#\yy	]	8ggg#\	]
!!LO:PB:g=original
=21	=21	=21	=21	=21	=21	=21	=21	=21	=21	=21	=21	=21	=21	=21	=21	=21	=21	=21	=21	=21	=21	=21	=21	=21	=21	=21
*	*	*	*	*	*	*	*	*	*	*	*	*	*	*	*	*	*	*	*	*	*^	*	*	*	*	*
!	!	!	!	!	!	!	!	!	!	!	!	!	!	!	!	!	!	!	!	!	!	!	!	!LO:TX:a:t=P:problem:dimunuendolike accent	!	!	!
2.ryy	.	4F#^<\	.	8cc#\L	.	8cc#^<\L	.	8aa^<\L	.	2.r	.	2.r	.	4f# 4F#^<\	.	2.r	.	8cc#/L	8cc#^<\L	.	8aaL 8cc#^>/	8cc#\L	.	8aa^<\Lyy	.	8aaa^<\L	.
.	.	.	.	16a\L	.	16cc#\L	.	16aa\L	.	.	.	.	.	.	.	.	.	16cc#/L	16a\L	.	16aaL 16cc#/	16cc#\L	.	16aa\Lyy	.	16aaa\L	.
.	.	.	.	16a\JJ	.	16cc#\JJ	.	16aa\JJ	.	.	.	.	.	.	.	.	.	16cc#/JJ	16a\JJ	.	16aaJJ 16cc#/	16cc#\JJ	.	16aa\JJyy	.	16aaa\JJ	.
!	!	!	!	!	!	!	!	!	!	!	!	!	!	!	!	!	!	!	!	!	!	!	!	!LO:TX:a:t=P:problem:dimunuendolike accent	!	!	!
.	.	4C#^<\	.	8b-X^<\L	.	8ee^<\L	.	(>16aa^<\LL	.	.	.	.	.	4c# 4C#^<\	.	.	.	8eeL 8b-X^<\	4ryy	.	16aa^>/LL	8cc#\L	.	(y>16aa^<\LLyy	.	(>16aaa^<\LL	.
.	.	.	.	.	.	.	.	16ggn\)	.	.	.	.	.	.	.	.	.	.	.	.	16ggn/	.	.	16ggn\)yy	.	16ggg#X\)	.
.	.	.	.	16b-\L	.	16ee\L	.	16gg'>\	.	.	.	.	.	.	.	.	.	16eeL 16b-\	.	.	16gg/	16cc#\L	.	16gg'>\yy	.	16ggg#'>\	.
.	.	.	.	16b-\JJ	.	16ee\JJ	.	16gg'>\JJ	.	.	.	.	.	.	.	.	.	16eeJJ 16b-\	.	.	16gg/JJ	16cc#\JJ	.	16gg'>\JJyy	.	16ggg#'>\JJ	.
!	!	!	!	!	!	!	!	!	!	!	!	!	!	!	!	!	!	!	!	!	!	!	!	!LO:TX:a:t=P:problem:dimunuendolike accent	!	!	!
.	.	4D#X^<\	.	8a^<\L	.	8ccn^<\L	.	(>16gg^<\LL	.	.	.	.	.	4d#X 4D#X^<\	.	.	.	8ccX/L	8a^<\L	.	16gg^>/LL	8ccn\L	.	(y>16gg^<\LLyy	.	(>16ggg#^<\LL	.
.	.	.	.	.	.	.	.	16ff#\)	.	.	.	.	.	.	.	.	.	.	.	.	16ff#/	.	.	16ff#\)yy	.	16fff#\)	.
.	.	.	.	16a\L	.	16cc\L	.	16ff#'>\	.	.	.	.	.	.	.	.	.	16cc/L	16a\L	.	16ff#/	16cc\L	.	16ff#'>\yy	.	16fff#'>\	.
.	.	.	.	16a\JJ	.	16cc\JJ	.	16ff#'>\JJ	.	.	.	.	.	.	.	.	.	16cc/JJ	16a\JJ	.	16ff#/JJ	16cc\JJ	.	16ff#'>\JJyy	.	16fff#'>\JJ	.
=22	=22	=22	=22	=22	=22	=22	=22	=22	=22	=22	=22	=22	=22	=22	=22	=22	=22	=22	=22	=22	=22	=22	=22	=22	=22	=22	=22
2.ryy	.	8E'>\L	.	8g\L	.	8b'>\L	.	(>16ff#\LL	.	2.r	.	2.r	.	8eL 8E\	.	2.r	.	8b/L	8g\L	.	16ff#/LL	8b\L	.	(y>16ff#\LLyy	.	8bb\	.
.	.	.	.	.	.	.	.	16ee\)	.	.	.	.	.	.	.	.	.	.	.	.	16ee/	.	.	16ee\)yy	.	.	.
.	.	8D#X'>\	.	8bn\	.	8b'>\	.	(>16gg\	.	.	.	.	.	8d#X 8D#X\	.	.	.	8bn/	8bn\	.	16gg/	8b\	.	(y>16gg\yy	.	4bb\	.
.	.	.	.	.	.	.	.	16ff#\JJ)	.	.	.	.	.	.	.	.	.	.	.	.	16ff#/JJ	.	.	16ff#\JJ)yy	.	.	.
.	.	8E'>\	.	8b\	.	8ee'>\	.	(>16aa\LL	.	.	.	.	.	8e 8E\	.	.	.	8ee/	8b\	.	16aa/LL	8b\	.	(y>16aa\LLyy	.	.	.
.	.	.	.	.	.	.	.	16gg\)	.	.	.	.	.	.	.	.	.	.	.	.	16gg/	.	.	16gg\)yy	.	.	.
.	.	8F#'>\	.	8b\	.	8dd#X'>\	.	(>16bb\	.	.	.	.	.	8f# 8F#\	.	.	.	8dd#X/	8b\	.	16bb/	8dd#X\	.	(y>16bb\yy	.	8ddd#X\L	.
.	.	.	.	.	.	.	.	16aa\JJ)	.	.	.	.	.	.	.	.	.	.	.	.	16aa/JJ	.	.	16aa\JJ)yy	.	.	.
.	.	8G'>\	.	8b\	.	8ee'>\	.	(>16ccc#\LL	.	.	.	.	.	8g 8G\	.	.	.	8ee/	8b\	.	16ccc#/LL	8ee\	.	(y>16ccc#\LLyy	.	8eee\	.
.	.	.	.	.	.	.	.	16bb\)	.	.	.	.	.	.	.	.	.	.	.	.	16bb/	.	.	16bb\)yy	.	.	.
.	.	8G#X'>\J	.	8bJ 8d\	.	8ffn'>\J	.	(>16ddd\	.	.	.	.	.	8g#XJ 8G#X\	.	.	.	8ffX/J	8dd#\J	.	16ddd/	8ffn\J	.	(y>16ddd\yy	.	8fffn\J	.
.	.	.	.	.	.	.	.	16bb\JJ)	.	.	.	.	.	.	.	.	.	.	.	.	16bb/JJ	.	.	16bb\JJ)yy	.	.	.
*	*	*	*	*	*	*	*	*	*	*	*	*	*	*	*	*	*	*v	*v	*	*	*	*	*	*	*	*
=23	=23	=23	=23	=23	=23	=23	=23	=23	=23	=23	=23	=23	=23	=23	=23	=23	=23	=23	=23	=23	=23	=23	=23	=23	=23	=23
*	*	*tremolo	*	*tremolo	*	*	*	*	*	*tremolo	*	*	*	*	*	*	*	*	*	*	*	*	*	*	*	*
!	!	!	!	!	!	!	!	!	!	!	!LO:DY:b:rj	!	!LO:DY:b:rj	!	!LO:DY:b:rj	!	!LO:DY:b:rj	!	!LO:DY:b:rj	!	!	!LO:DY:b:rj	!	!	!	!
2.ryy	.	8A\L	.	16aLL 16f#X\	.	(>16ff#X\LL	.	(>16aa\LL	.	16AA/LL	f	2.a 2.A/	f	2.a 2.A\	f	2.ff# 2.dd\	f	2.ff# 2.dd\	f	2.aa/	2.ff#X\	f	2.aaTT>\	.	2.fff#X\	.
.	.	.	.	16a 16f#\	.	16ddd\)	.	16fff#\)	.	16AA/	.	.	.	.	.	.	.	.	.	.	.	.	.	.	.	.
.	.	8A\	.	16a 16f#\	.	(>16ddd\	.	(>16fff#\	.	16AA/	.	.	.	.	.	.	.	.	.	.	.	.	.	.	.	.
.	.	.	.	16a 16f#\	.	16aa\JJ)	.	16ddd\JJ)	.	16AA/	.	.	.	.	.	.	.	.	.	.	.	.	.	.	.	.
.	.	8A\	.	16a 16f#\	.	(>16aa\LL	.	(>16ddd\LL	.	16AA/	.	.	.	.	.	.	.	.	.	.	.	.	.	.	.	.
.	.	.	.	16a 16f#\	.	16ff#\)	.	16aa\)	.	16AA/	.	.	.	.	.	.	.	.	.	.	.	.	.	.	.	.
.	.	8A\	.	16a 16f#\	.	(>16ff#\	.	(>16aa\	.	16AA/	.	.	.	.	.	.	.	.	.	.	.	.	.	.	.	.
.	.	.	.	16a 16f#\	.	16dd\JJ)	.	16ff#\JJ)	.	16AA/	.	.	.	.	.	.	.	.	.	.	.	.	.	.	.	.
.	.	8A\	.	16a 16f#\	.	(>16dd\LL	.	(>16ff#\LL	.	16AA/	.	.	.	.	.	.	.	.	.	.	.	.	.	.	.	.
.	.	.	.	16a 16f#\	.	16a\)	.	16dd\)	.	16AA/	.	.	.	.	.	.	.	.	.	.	.	.	.	.	.	.
.	.	8A\J	.	16a 16f#\	.	(>16gg\	.	(>16bb\	.	16AA/	.	.	.	.	.	.	.	.	.	.	.	.	.	.	.	.
.	.	.	.	16aJJ 16f#\	.	16ff#\JJ)	.	16aa\JJ)	.	16AA/JJ	.	.	.	.	.	.	.	.	.	.	.	.	.	.	.	.
*	*	*Xtremolo	*	*Xtremolo	*	*	*	*	*	*Xtremolo	*	*	*	*	*	*	*	*	*	*	*	*	*	*	*	*
*	*	*	*	*	*	*	*	*	*	*	*	*	*	*	*	*	*	*	*	*v	*v	*	*	*	*	*
=24	=24	=24	=24	=24	=24	=24	=24	=24	=24	=24	=24	=24	=24	=24	=24	=24	=24	=24	=24	=24	=24	=24	=24	=24	=24
*	*	*	*	*	*	*	*	*	*	*	*	*^	*	*	*	*	*	*	*	*	*	*	*	*	*
*	*	*	*	*	*	*	*	*	*	*	*	*	*	*	*^	*	*	*	*	*	*	*	*	*	*	*
2.ryy	.	4AA/	.	8aL 8g\	.	(>16ff#\LL	.	(>16aa\LL	.	4AA/	.	8aL 8A/	2ryy	.	4A 4AA/	4AA\	.	8eeL 8a/	.	8.r	.	(>16aaLL 16ff#\	.	(>16aa\LL	.	(>16fff#\LL	.
.	.	.	.	.	.	16ee\)	.	16gg\)	.	.	.	.	.	.	.	.	.	.	.	.	.	16gg 16ee\)	.	16gg\)	.	16eee\)	.
.	.	.	.	16r	.	16dd'>\	.	16ff#'>\	.	.	.	16aL 16A/	.	.	.	.	.	16r	.	.	.	16ff# 16dd'>\	.	16ff#'>\	.	16ddd'>\	.
.	.	.	.	16aJk 16g\	.	16cc#'>\JJ	.	16ee'>\JJ	.	.	.	16aJJ 16A/	.	.	.	.	.	16eeJk 16a/	.	16cc# 16g/	.	16eeJJ 16cc#'>\	.	16ee'>\JJ	.	16ccc#'>\JJ	.
.	.	8r	.	(>4a 4g\	.	(>4cc#\	.	(>4ee\	.	8r	.	8aL 8A/	.	.	8r	8ryy	.	4ee 4a/	.	(<4cc# 4g/	.	(>4ee 4cc#\	.	(>4ee\	.	(>4ccc#\	.
.	.	8AA/	.	.	.	.	.	.	.	8AA/	.	8aJ 8A/	.	.	8AA/	8ryy	.	.	.	.	.	.	.	.	.	.	.
.	.	4D/	.	8a 8f#\)	.	8dd\)	.	8dd\)	.	4D/	.	4d/	4d\	.	4D/	4ryy	.	8dd 8f#/	.	8dd 8f#/)	.	8dd\)	.	8dd\)	.	8ddd\)	.
.	.	.	.	8r	.	8r	.	8r	.	.	.	.	.	.	.	.	.	8r	.	8r	.	8r	.	8r	.	8r	.
*	*	*	*	*	*	*	*	*	*	*	*	*v	*v	*	*	*	*	*	*	*	*	*	*	*	*	*	*
*	*	*	*	*	*	*	*	*	*	*	*	*	*	*v	*v	*	*	*	*	*	*	*	*	*	*	*
=25:|!|:	=25:|!|:	=25:|!|:	=25:|!|:	=25:|!|:	=25:|!|:	=25:|!|:	=25:|!|:	=25:|!|:	=25:|!|:	=25:|!|:	=25:|!|:	=25:|!|:	=25:|!|:	=25:|!|:	=25:|!|:	=25:|!|:	=25:|!|:	=25:|!|:	=25:|!|:	=25:|!|:	=25:|!|:	=25:|!|:	=25:|!|:	=25:|!|:	=25:|!|:
*>C	*	*>C	*	*>C	*	*>C	*	*>C	*	*>C	*	*>C	*	*>C	*	*>C	*	*>C	*	*>C	*	*>C	*	*>C	*
*	*	*	*	*tremolo	*	*tremolo	*	*	*	*	*	*	*	*	*	*	*	*	*	*	*	*	*	*	*
!	!	!LO:TX:b:Bi:t=pizzic	!	!LO:TX:b:Bi:t=pizz:rj	!	!LO:TX:b:Bi:t=pizz:rj	!	!	!	!	!	!	!	!	!	!	!	!	!	!	!	!	!	!	!
!	!	!LO:TX:a:t=P:problem:mixed beam	!	!	!	!	!	!	!	!	!	!	!	!	!	!	!	!	!	!	!	!	!	!	!
2.ryy	.	8AA/L	.	8A/L	.	8eL 8d 8c#/	.	8r	.	2.r	.	2.r	.	2.r	.	2.r	.	8r	.	2.r	.	2.r	.	2.r	.
!	!	!	!	!	!	!	!	!LO:TX:b:Bi:t=pizzic	!	!	!	!	!	!	!	!	!	!LO:TX:a:Bi:t=Solo:rj	!	!	!	!	!	!	!
.	.	8A\J	.	8A/	.	8e 8d 8c#/	.	8ee\L	.	.	.	.	.	.	.	.	.	(<16e/LL	.	.	.	.	.	.	.
.	.	.	.	.	.	.	.	.	.	.	.	.	.	.	.	.	.	16a/JJ	.	.	.	.	.	.	.
*	*	*tremolo	*	*	*	*	*	*	*	*	*	*	*	*	*	*	*	*	*	*	*	*	*	*	*
.	.	8A\L	.	8A/	.	8e 8d 8c#/	.	8aa\	.	.	.	.	.	.	.	.	.	8cc#/L)	.	.	.	.	.	.	.
.	.	8A\	.	8A/	.	8e 8d 8c#/	.	8ccc#\	.	.	.	.	.	.	.	.	.	(<16a/L	.	.	.	.	.	.	.
.	.	.	.	.	.	.	.	.	.	.	.	.	.	.	.	.	.	16cc#/JJ	.	.	.	.	.	.	.
.	.	8A\	.	8A/	.	8e 8d 8c#/	.	8eee\	.	.	.	.	.	.	.	.	.	8ee/)	.	.	.	.	.	.	.
.	.	8A\J	.	8A/J	.	8eJ 8d 8c#/	.	8ddd\J	.	.	.	.	.	.	.	.	.	8r	.	.	.	.	.	.	.
=26	=26	=26	=26	=26	=26	=26	=26	=26	=26	=26	=26	=26	=26	=26	=26	=26	=26	=26	=26	=26	=26	=26	=26	=26	=26
2.ryy	.	8A\L	.	8A/L	.	8eL 8c# 8B/	.	8ccc#\L	.	2.r	.	2.r	.	2.r	.	2.r	.	8r	.	2.r	.	2.r	.	2.r	.
.	.	8A\	.	8A/	.	8e 8c# 8B/	.	8bb\	.	.	.	.	.	.	.	.	.	(<16e/LL	.	.	.	.	.	.	.
.	.	.	.	.	.	.	.	.	.	.	.	.	.	.	.	.	.	16a/JJ	.	.	.	.	.	.	.
.	.	8A\	.	8A/	.	8e 8c# 8B/	.	8aa\	.	.	.	.	.	.	.	.	.	8cc#/L)	.	.	.	.	.	.	.
.	.	8A\	.	8A/	.	8e 8c# 8B/	.	8gg#X\	.	.	.	.	.	.	.	.	.	(<16a/L	.	.	.	.	.	.	.
.	.	.	.	.	.	.	.	.	.	.	.	.	.	.	.	.	.	16cc#/JJ	.	.	.	.	.	.	.
.	.	8A\	.	8A/	.	8e 8c# 8B/	.	8ff#\	.	.	.	.	.	.	.	.	.	(>8.ff#\L)	.	.	.	.	.	.	.
.	.	8A\J	.	8A/J	.	8eJ 8c# 8B/	.	8ee\J	.	.	.	.	.	.	.	.	.	.	.	.	.	.	.	.	.
.	.	.	.	.	.	.	.	.	.	.	.	.	.	.	.	.	.	16ee\Jk)	.	.	.	.	.	.	.
=27	=27	=27	=27	=27	=27	=27	=27	=27	=27	=27	=27	=27	=27	=27	=27	=27	=27	=27	=27	=27	=27	=27	=27	=27	=27
*	*	*	*	*	*	*	*	*	*	*	*	*	*	*	*	*	*	*	*	*	*	*	*	*Xtuplet	*
2.ryy	.	8A\L	.	8A/L	.	8eL 8c#/	.	8dd/L	.	2.r	.	2.r	.	2.r	.	2.r	.	8dd'>\L	.	2.r	.	2.r	.	8r	.
!	!	!	!	!	!	!	!	!	!	!	!	!	!	!	!	!	!	!LO:TUP:a:problem:brak klamry	!	!	!	!	!	!	!
.	.	8A\	.	8A/	.	8e 8c#/	.	8cc#/	.	.	.	.	.	.	.	.	.	(>24cc#\L	.	.	.	.	.	(>24ccc#\LL	.
.	.	.	.	.	.	.	.	.	.	.	.	.	.	.	.	.	.	24dd\	.	.	.	.	.	24ddd\	.
.	.	.	.	.	.	.	.	.	.	.	.	.	.	.	.	.	.	24cc#\JJ	.	.	.	.	.	24ccc#\JJ	.
.	.	8A\	.	8A/	.	8e 8c#/	.	8b/	.	.	.	.	.	.	.	.	.	8b\L)	.	.	.	.	.	8bb|>\L)	.
!	!	!	!	!	!	!	!	!	!	!	!	!	!	!	!	!	!	!LO:TUP:a:problem:klamra łukowa	!	!	!	!	!	!	!
.	.	8A\	.	8A/	.	8e 8c#/	.	8a/	.	.	.	.	.	.	.	.	.	24a\L	.	.	.	.	.	(>24aa\L	.
.	.	.	.	.	.	.	.	.	.	.	.	.	.	.	.	.	.	24b\	.	.	.	.	.	24bb\	.
.	.	.	.	.	.	.	.	.	.	.	.	.	.	.	.	.	.	24a\JJ	.	.	.	.	.	24aa\JJ	.
.	.	8A\	.	8A/	.	8e 8c#/	.	8g#X/	.	.	.	.	.	.	.	.	.	8g#\L	.	.	.	.	.	8gg#X|>\L)	.
!	!	!	!	!	!	!	!	!	!	!	!	!	!	!	!	!	!	!LO:TUP:a:problem:klamra łukowa	!	!	!	!	!	!	!
.	.	8A\J	.	8A/J	.	8eJ 8c#/	.	8f#/J	.	.	.	.	.	.	.	.	.	24f#\L	.	.	.	.	.	(>24ff#\L	.
.	.	.	.	.	.	.	.	.	.	.	.	.	.	.	.	.	.	24g#\	.	.	.	.	.	24gg#\	.
.	.	.	.	.	.	.	.	.	.	.	.	.	.	.	.	.	.	24f#\JJ	.	.	.	.	.	24ff#\JJ	.
*	*	*Xtremolo	*	*Xtremolo	*	*Xtremolo	*	*	*	*	*	*	*	*	*	*	*	*	*	*	*	*	*	*	*
*	*	*	*	*	*	*	*	*	*	*	*	*	*	*	*	*	*	*	*	*	*	*	*	*tuplet	*
=28	=28	=28	=28	=28	=28	=28	=28	=28	=28	=28	=28	=28	=28	=28	=28	=28	=28	=28	=28	=28	=28	=28	=28	=28	=28
*	*	*	*	*	*	*	*	*	*	*	*	*	*	*^	*	*	*	*	*	*	*	*	*	*	*
!	!	!	!	!	!	!	!	!	!	!	!	!	!	!LO:TX:b:Bi:t=Staccato.	!	!	!	!	!	!	!	!	!	!	!	!
!	!	!	!	!	!	!	!	!	!	!	!	!	!	!LO:TX:b:Bi:t=2do:rj	!	!	!LO:TX:a:Bi:t=1mo/do:rj	!	!	!	!	!	!	!	!	!
!	!	!	!	!	!	!	!	!	!	!	!	!	!	!	!	!	!	!	!LO:TX:a:t=P:problem:mixed beam	!	!	!	!	!	!	!
2.ryy	.	8d\L	.	8B/L	.	8eL 8B/	.	4e/	.	2.r	.	2.r	.	4r	8d\L	.	8r	.	(>8e/L	.	2.r	.	2.r	.	(>8ee\L)	.
!	!	!	!	!	!	!	!	!	!	!	!	!	!	!	!	!	!	!LO:DY:b:rj	!	!	!	!	!	!	!	!
.	.	8c#\	.	8c#/	.	8e/J	.	.	.	.	.	.	.	.	8c#\	.	16ee\LL	p	8ee\J)	.	.	.	.	.	8eee\J)	.
.	.	.	.	.	.	.	.	.	.	.	.	.	.	.	.	.	16ee\JJ	.	.	.	.	.	.	.	.	.
*	*	*	*	*	*	*tremolo	*	*	*	*	*	*	*	*	*	*	*tremolo	*	*	*	*	*	*	*	*	*
.	.	8B\	.	8d/	.	8e/L	.	4r	.	.	.	.	.	8r	8B\	.	8ee\L	.	8r	.	.	.	.	.	4r	.
.	.	8A\	.	8c#/	.	8e/	.	.	.	.	.	.	.	8c#/L	8A\	.	8ee\	.	16e/LL	.	.	.	.	.	.	.
.	.	.	.	.	.	.	.	.	.	.	.	.	.	.	.	.	.	.	16e/JJ	.	.	.	.	.	.	.
.	.	8G#X\	.	8B/	.	8e/	.	4r	.	.	.	.	.	8d/	8G#X\	.	8ee\	.	8e/L	.	.	.	.	.	4r	.
.	.	8F#\J	.	8A/J	.	8e/J	.	.	.	.	.	.	.	8d#X/J	8F#\J	.	8ee\J	.	8e/J	.	.	.	.	.	.	.
*	*	*	*	*	*	*Xtremolo	*	*	*	*	*	*	*	*	*	*	*Xtremolo	*	*	*	*	*	*	*	*	*
*	*	*	*	*	*	*	*	*	*	*	*	*	*	*v	*v	*	*	*	*	*	*	*	*	*	*	*
=29	=29	=29	=29	=29	=29	=29	=29	=29	=29	=29	=29	=29	=29	=29	=29	=29	=29	=29	=29	=29	=29	=29	=29	=29	=29
2.ryy	.	4E\	.	8G#X/L	.	8e/L	.	8r	.	2.r	.	2.r	.	4e 4E\	.	2.r	.	8e/L	.	2.r	.	2.r	.	2.r	.
.	.	.	.	8BJ 8G#/	.	8eJ 8d/	.	8ee\L	.	.	.	.	.	.	.	.	.	(<16dd/L	.	.	.	.	.	.	.
.	.	.	.	.	.	.	.	.	.	.	.	.	.	.	.	.	.	16b/JJ	.	.	.	.	.	.	.
*	*	*	*	*tremolo	*	*tremolo	*	*	*	*	*	*	*	*	*	*	*	*	*	*	*	*	*	*	*
.	.	4r	.	8BL 8G#/	.	8eL 8d/	.	8gg#X\	.	.	.	.	.	4r	.	.	.	8g/L)	.	.	.	.	.	.	.
.	.	.	.	8B 8G#/	.	8e 8d/	.	8bb\	.	.	.	.	.	.	.	.	.	(<16b/L	.	.	.	.	.	.	.
.	.	.	.	.	.	.	.	.	.	.	.	.	.	.	.	.	.	16fX/JJ	.	.	.	.	.	.	.
.	.	4r	.	8B 8G#/	.	8e 8d/	.	8ddd\	.	.	.	.	.	4r	.	.	.	8e/)	.	.	.	.	.	.	.
.	.	.	.	8BJ 8G#/	.	8eJ 8d/	.	8ccc#\J	.	.	.	.	.	.	.	.	.	8r	.	.	.	.	.	.	.
!!LO:PB:g=original
=30	=30	=30	=30	=30	=30	=30	=30	=30	=30	=30	=30	=30	=30	=30	=30	=30	=30	=30	=30	=30	=30	=30	=30	=30	=30
2.ryy	.	4E\	.	8BL 8G#X/	.	8eL 8d/	.	8bb\L	.	2.r	.	2.r	.	2.r	.	2.r	.	8r	.	2.r	.	2.r	.	2.r	.
!	!	!	!	!	!	!	!	!	!	!	!	!	!	!	!	!	!	!LO:TUP:b:problem:klamra łukowa	!	!	!	!	!	!	!
.	.	.	.	8B 8G#/	.	8e 8d/	.	8aa\	.	.	.	.	.	.	.	.	.	24e/LL	.	.	.	.	.	.	.
.	.	.	.	.	.	.	.	.	.	.	.	.	.	.	.	.	.	24g#/	.	.	.	.	.	.	.
.	.	.	.	.	.	.	.	.	.	.	.	.	.	.	.	.	.	24b/JJ	.	.	.	.	.	.	.
.	.	4r	.	8B 8G#/	.	8e 8d/	.	8gg#X\	.	.	.	.	.	.	.	.	.	8dd/L	.	.	.	.	.	.	.
!	!	!	!	!	!	!	!	!	!	!	!	!	!	!	!	!	!	!LO:TUP:b:problem:brak klamry	!	!	!	!	!	!	!
.	.	.	.	8B 8G#/	.	8e 8d/	.	8ff#\	.	.	.	.	.	.	.	.	.	(<24g#/L	.	.	.	.	.	.	.
.	.	.	.	.	.	.	.	.	.	.	.	.	.	.	.	.	.	24b/	.	.	.	.	.	.	.
.	.	.	.	.	.	.	.	.	.	.	.	.	.	.	.	.	.	24ff#/JJ	.	.	.	.	.	.	.
.	.	4r	.	8B 8G#/	.	8e 8d/	.	8ee\	.	.	.	.	.	.	.	.	.	8.ee/L	.	.	.	.	.	.	.
.	.	.	.	8BJ 8G#/	.	8eJ 8d/	.	8dd#X\J	.	.	.	.	.	.	.	.	.	.	.	.	.	.	.	.	.
.	.	.	.	.	.	.	.	.	.	.	.	.	.	.	.	.	.	16dd#X/Jk)	.	.	.	.	.	.	.
=31	=31	=31	=31	=31	=31	=31	=31	=31	=31	=31	=31	=31	=31	=31	=31	=31	=31	=31	=31	=31	=31	=31	=31	=31	=31
2.ryy	.	8E\	.	8BL 8G#y/	.	8eL 8d/	.	8ddn\L	.	2.r	.	2.r	.	8d 8B\	.	2.r	.	8dd\L	.	2.r	.	2.r	.	8r	.
!	!	!	!	!	!	!	!	!	!	!	!	!	!	!	!	!	!	!LO:TUP:a:problem:klamra łukowa	!	!	!	!	!	!LO:TUP:a:problem:klamra łukowa	!
.	.	8r	.	8B 8G#/	.	8e 8d/	.	8cc#\	.	.	.	.	.	8r	.	.	.	24cc#\L	.	.	.	.	.	24ccc#\LL	.
.	.	.	.	.	.	.	.	.	.	.	.	.	.	.	.	.	.	24dd\	.	.	.	.	.	24ddd\	.
.	.	.	.	.	.	.	.	.	.	.	.	.	.	.	.	.	.	24cc#\JJ	.	.	.	.	.	24ccc#\JJ	.
.	.	8G#X\	.	8B 8G#/	.	8e 8d/	.	8b\	.	.	.	.	.	8d 8B\	.	.	.	8b\L	.	.	.	.	.	8bb\L	.
!	!	!	!	!	!	!	!	!	!	!	!	!	!	!	!	!	!	!LO:TUP:a:problem:klamra łukowa bez 3	!	!	!	!	!	!LO:TUP:a:problem:klamra łukowa	!
.	.	8r	.	8B 8G#/	.	8e 8d/	.	8a\	.	.	.	.	.	8r	.	.	.	24a\L	.	.	.	.	.	24aa\L	.
.	.	.	.	.	.	.	.	.	.	.	.	.	.	.	.	.	.	24b\	.	.	.	.	.	24bb\	.
.	.	.	.	.	.	.	.	.	.	.	.	.	.	.	.	.	.	24a\JJ	.	.	.	.	.	24aa\JJ	.
.	.	8E\	.	8B 8G#/	.	8e 8d/	.	8g#X\	.	.	.	.	.	8d 8B\	.	.	.	8g#\L	.	.	.	.	.	8gg#X\L	.
!	!	!	!	!	!	!	!	!	!	!	!	!	!	!	!	!	!	!LO:TUP:a:problem:klamra łukowa	!	!	!	!	!	!LO:TUP:a:problem:brak klamry	!
.	.	8r	.	8BJ 8G#/	.	8eJ 8d/	.	8ee\J	.	.	.	.	.	8r	.	.	.	24ee\L	.	.	.	.	.	24eee\L	.
.	.	.	.	.	.	.	.	.	.	.	.	.	.	.	.	.	.	24ff#\	.	.	.	.	.	24fff#\	.
.	.	.	.	.	.	.	.	.	.	.	.	.	.	.	.	.	.	24ee\JJ	.	.	.	.	.	24eee\JJ	.
*	*	*	*	*Xtremolo	*	*Xtremolo	*	*	*	*	*	*	*	*	*	*	*	*	*	*	*	*	*	*	*
=32	=32	=32	=32	=32	=32	=32	=32	=32	=32	=32	=32	=32	=32	=32	=32	=32	=32	=32	=32	=32	=32	=32	=32	=32	=32
!	!	!LO:TX:b:Bi:t=arco	!	!	!	!	!	!	!	!	!	!LO:TX:a:Bi:t=Solo	!	!	!	!	!	!	!	!	!	!	!	!	!
2.ryy	.	8r	.	8r	.	8r	.	4a/	.	2.r	.	8r	.	8c#L 8A\	.	2.r	.	(>8a\L	.	2.r	.	2.r	.	(s8aa\L	.
!	!	!	!	!LO:TX:b:Bi:t=arco:rj	!	!LO:TX:b:Bi:t=arco	!	!	!	!	!	!	!	!	!	!	!	!	!	!	!	!	!	!	!
!	!	!	!	!	!	!	!	!	!	!	!	!	!LO:DY:b:rj	!	!	!	!	!	!	!	!	!	!	!	!
.	.	8AA'</L	.	8c#'>\L	.	16a/LL	.	.	.	.	.	16a/LL	p	8c# 8AA'>\	.	.	.	8aa\J)	.	.	.	.	.	8aaa\J)	.
.	.	.	.	.	.	16a/JJ	.	.	.	.	.	16a/JJ	.	.	.	.	.	.	.	.	.	.	.	.	.
*	*	*	*	*	*	*tremolo	*	*	*	*	*	*tremolo	*	*	*	*	*	*	*	*	*	*	*	*	*
!	!	!	!	!	!	!	!	!LO:TX:b:Bi:t=arco	!	!	!	!	!	!	!	!	!	!	!	!	!	!	!	!	!
.	.	8BB'</	.	8d'>\	.	8a/L	.	4r	.	.	.	8a/L	.	8d 8BB'>\	.	.	.	4r	.	.	.	.	.	4r	.
.	.	8C#'</	.	8e'>\	.	8a/	.	.	.	.	.	8a/	.	8e 8C#'>\	.	.	.	.	.	.	.	.	.	.	.
.	.	8D'<\	.	8f#'>\	.	8a/	.	4r	.	.	.	8a/	.	8f# 8D'>\	.	.	.	4r	.	.	.	.	.	4r	.
!!LO:TX:a:Bi:t=[segno]:problem:znak segno na kresce taktowej w każdym głosie
!!LO:TX:a:Bi:t=d' al Segno
.	.	8D#X'<\J	.	8f#'>\J	.	8a/J	.	.	.	.	.	8a/J	.	8f#J 8D#X'>\	.	.	.	.	.	.	.	.	.	.	.
*	*	*	*	*	*	*Xtremolo	*	*	*	*	*	*Xtremolo	*	*	*	*	*	*	*	*	*	*	*	*	*
=33||	=33||	=33||	=33||	=33||	=33||	=33||	=33||	=33||	=33||	=33||	=33||	=33||	=33||	=33||	=33||	=33||	=33||	=33||	=33||	=33||	=33||	=33||	=33||	=33||	=33||
*	*	*	*	*	*	*	*	*	*	*	*	*	*	*	*	*^	*	*	*	*	*	*	*	*	*
*	*	*	*	*	*	*	*	*	*	*	*	*	*	*	*	*	*	*	*^	*	*	*	*	*	*	*
*	*	*	*	*	*	*	*	*	*	*	*	*	*	*	*	*	*	*	*	*	*	*^	*	*	*	*	*
*	*	*	*	*	*	*	*	*	*	*	*	*^	*	*	*	*	*	*	*	*	*	*	*	*	*	*	*	*
*k[f#]	*	*k[f#]	*	*k[f#]	*	*k[f#]	*	*k[f#]	*	*k[f#]	*	*k[f#]	*k[f#]	*	*k[f#]	*	*k[f#]	*k[f#]	*	*k[f#]	*k[f#]	*	*k[f#]	*k[f#]	*	*k[f#]	*	*k[f#]	*
*M3/4	*	*M3/4	*	*M3/4	*	*M3/4	*	*M3/4	*	*M3/4	*	*M3/4	*M3/4	*	*M3/4	*	*M3/4	*M3/4	*	*M3/4	*M3/4	*	*M3/4	*M3/4	*	*M3/4	*	*M3/4	*
*>D	*	*>D	*	*>D	*	*>D	*	*>D	*	*>D	*	*>D	*>D	*	*>D	*	*>D	*>D	*	*>D	*>D	*	*>D	*>D	*	*>D	*	*>D	*
!	!	!	!	!	!	!	!	!	!	!	!	!	!	!	!	!	!	!	!	!	!	!	!	!	!	!	!	!LO:TX:a:Bi:t=Trio:rj	!
!	!	!	!LO:DY:b:rj	!	!LO:DY:b:rj	!	!LO:DY:b:rj	!	!LO:DY:b:rj	!	!	!	!	!	!	!LO:DY:b:rj	!	!	!	!	!	!LO:DY:b:rj	!	!	!	!	!	!	!
2.ryy	.	8.G\L	ff	8.G/L	ff	8.g/L	ff	8.g/L	ff	2.r	.	4r	4ryy	.	8.G\L	f	4r	4ryy	.	8.g/L	8.g\L	f	8.g/L	8.g\L	.	2.r	.	2.r	.
.	.	16B\Jk	.	16B/Jk	.	16b/Jk	.	16b/Jk	.	.	.	.	.	.	16B\Jk	.	.	.	.	16b/Jk	16b\Jk	.	16b/Jk	16b\Jk	.	.	.	.	.
!	!	!	!	!	!	!	!	!	!	!	!	!	!	!LO:DY:b:rj	!	!	!	!	!LO:DY:b:rj	!	!	!	!	!	!	!	!	!	!
.	.	4d\	.	4d/	.	4dd/	.	4dd/	.	.	.	4dd/	4dd\	f	4d\	.	4dd/	4dd\	f	4dd/	4dd\	.	4dd/	4dd\	.	.	.	.	.
.	.	4d\	.	4d/	.	4dd/	.	4dd/	.	.	.	4dd/	4dd\	.	4d\	.	4dd/	4dd\	.	4dd/	4dd\	.	4dd/	4dd\	.	.	.	.	.
=34	=34	=34	=34	=34	=34	=34	=34	=34	=34	=34	=34	=34	=34	=34	=34	=34	=34	=34	=34	=34	=34	=34	=34	=34	=34	=34	=34	=34	=34
2.ryy	.	8.B\L	.	8.B/L	.	8.b/L	.	8.b/L	.	4r	.	4r	4ryy	.	8.B\L	.	4r	4ryy	.	8.b/L	8.b\L	.	8.b/L	8.b\L	.	2.r	.	2.r	.
.	.	16G\Jk	.	16G/Jk	.	16g/Jk	.	16g/Jk	.	.	.	.	.	.	16G\Jk	.	.	.	.	16g/Jk	16g\Jk	.	16g/Jk	16g\Jk	.	.	.	.	.
!	!	!	!	!	!	!	!	!	!	!	!LO:DY:b:rj	!	!	!	!	!	!	!	!	!	!	!	!	!	!	!	!	!	!
.	.	4D\	.	4D/	.	4d/	.	4d/	.	4D\	f	4d/	4d\	.	4D\	.	4d/	4d\	.	4d/	4d\	.	4d/	4d\	.	.	.	.	.
.	.	4D\	.	4D/	.	4d/	.	4d/	.	4D\	.	4d/	4d\	.	4D\	.	4d/	4d\	.	4d/	4d\	.	4d/	4d\	.	.	.	.	.
*	*	*	*	*	*	*	*	*	*	*	*	*	*	*	*	*	*	*	*	*	*	*	*v	*v	*	*	*	*	*
*	*	*	*	*	*	*	*	*	*	*	*	*	*	*	*	*	*v	*v	*	*	*	*	*	*	*	*	*	*
*	*	*	*	*	*	*	*	*	*	*	*	*	*	*	*	*	*	*	*v	*v	*	*	*	*	*	*	*
*	*	*	*	*	*	*	*	*	*	*	*	*v	*v	*	*	*	*	*	*	*	*	*	*	*	*	*
=35	=35	=35	=35	=35	=35	=35	=35	=35	=35	=35	=35	=35	=35	=35	=35	=35	=35	=35	=35	=35	=35	=35	=35	=35	=35
*	*	*tremolo	*	*tremolo	*	*tremolo	*	*tremolo	*	*	*	*	*	*	*	*	*	*	*	*	*	*	*	*	*
!	!	!	!	!	!	!LO:TX:a:Bi:t=/&colon;drzewcem&colon;/:problem:w źródle zaznaczony konkretny fragment	!	!LO:TX:a:Bi:t=/&colon;drzewcem&colon;/:problem:w źródle zaznaczony konkretny fragment	!	!	!	!	!	!	!	!	!	!	!	!	!	!	!	!	!
!	!	!LO:TX:b:Bi:t=/&colon;mit holz&colon;/:problem:w źródle zaznaczony konkretny fragment	!	!LO:TX:a:Bi:t=/&colon;drzewcem&colon;/:problem:w źródle zaznaczony konkretny fragment	!	!	!	!	!	!	!	!	!	!	!	!	!	!	!	!	!	!	!	!	!
!	!	!	!LO:DY:a:rj	!	!LO:DY:b:rj	!	!LO:DY:b:rj	!	!LO:DY:b:rj	!	!	!	!	!	!	!	!	!	!	!	!	!	!	!	!
2.ryy	.	(<8G\L	p	8dL 8G/	p	8gL 8B/	p	(>8bL 8d/	p	2.r	.	2.r	.	2.r	.	2.r	.	2.r	.	2.r	.	2.r	.	(>16gg\LL	.
.	.	.	.	.	.	.	.	.	.	.	.	.	.	.	.	.	.	.	.	.	.	.	.	16aa\	.
.	.	8G\	.	8d 8G/	.	8g 8B/	.	8b 8d/	.	.	.	.	.	.	.	.	.	.	.	.	.	.	.	16bb\	.
.	.	.	.	.	.	.	.	.	.	.	.	.	.	.	.	.	.	.	.	.	.	.	.	16ccc\JJ)	.
.	.	8G\	.	8d 8G/	.	8g 8B/	.	8b 8d/	.	.	.	.	.	.	.	.	.	.	.	.	.	.	.	16ddd\LL	.
.	.	.	.	.	.	.	.	.	.	.	.	.	.	.	.	.	.	.	.	.	.	.	.	16ddd\	.
.	.	8G\	.	8d 8G/	.	8g 8B/	.	8b 8d/	.	.	.	.	.	.	.	.	.	.	.	.	.	.	.	16ddd\	.
.	.	.	.	.	.	.	.	.	.	.	.	.	.	.	.	.	.	.	.	.	.	.	.	16ddd\JJ	.
.	.	8G\	.	8d 8G/	.	8g 8B/	.	8b 8d/	.	.	.	.	.	.	.	.	.	.	.	.	.	.	.	(>16ddd\LL	.
.	.	.	.	.	.	.	.	.	.	.	.	.	.	.	.	.	.	.	.	.	.	.	.	16ggg\	.
.	.	8G\J	.	8dJ 8G/	.	8gJ 8B/	.	8bJ 8d/	.	.	.	.	.	.	.	.	.	.	.	.	.	.	.	16fff#\	.
.	.	.	.	.	.	.	.	.	.	.	.	.	.	.	.	.	.	.	.	.	.	.	.	16ggg\JJ)	.
=36	=36	=36	=36	=36	=36	=36	=36	=36	=36	=36	=36	=36	=36	=36	=36	=36	=36	=36	=36	=36	=36	=36	=36	=36	=36
2.ryy	.	8G\L	.	8dL 8G/	.	8gL 8B/	.	8bL 8d/	.	2.r	.	2.r	.	2.r	.	2.r	.	2.r	.	2.r	.	2.r	.	(>32bb\KLL	.
.	.	.	.	.	.	.	.	.	.	.	.	.	.	.	.	.	.	.	.	.	.	.	.	16.ddd\)	.
.	.	8G\	.	8d 8G/	.	8g 8B/	.	8b 8d/	.	.	.	.	.	.	.	.	.	.	.	.	.	.	.	(>32gg\K	.
.	.	.	.	.	.	.	.	.	.	.	.	.	.	.	.	.	.	.	.	.	.	.	.	16.bb\JJ)	.
.	.	8G\	.	8d 8G/	.	8g 8B/	.	8b 8d/	.	.	.	.	.	.	.	.	.	.	.	.	.	.	.	[>4dd\	.
.	.	8G\	.	8d 8G/	.	8g 8B/	.	8b 8d/	.	.	.	.	.	.	.	.	.	.	.	.	.	.	.	.	.
.	.	8G\	.	8d 8G/	.	8g 8B/	.	8b 8d/	.	.	.	.	.	.	.	.	.	.	.	.	.	.	.	8dd\L]	.
.	.	8G\J	.	8dJ 8G/	.	8gJ 8B/	.	8bJ 8d/	.	.	.	.	.	.	.	.	.	.	.	.	.	.	.	16bb'>\L	.
.	.	.	.	.	.	.	.	.	.	.	.	.	.	.	.	.	.	.	.	.	.	.	.	16gg'>\JJ	.
=37	=37	=37	=37	=37	=37	=37	=37	=37	=37	=37	=37	=37	=37	=37	=37	=37	=37	=37	=37	=37	=37	=37	=37	=37	=37
2.ryy	.	8D\L	.	8AL 8F#/	.	8f#L 8A/	.	8aL 8d/	.	2.r	.	2.r	.	2.r	.	2.r	.	2.r	.	2.r	.	2.r	.	(>16gg#X\LL	.
.	.	.	.	.	.	.	.	.	.	.	.	.	.	.	.	.	.	.	.	.	.	.	.	16aa\	.
.	.	8d\	.	8d 8A/	.	8a 8f#/	.	8cc 8d/	.	.	.	.	.	.	.	.	.	.	.	.	.	.	.	16ccc'>\)	.
.	.	.	.	.	.	.	.	.	.	.	.	.	.	.	.	.	.	.	.	.	.	.	.	16dd'>\JJ	.
*	*	*	*	*	*	*	*	*	*	*	*	*	*	*	*	*	*	*	*	*	*	*	*	*rep	*
.	.	8D\	.	8A 8F#/	.	8f# 8A/	.	8a 8d/	.	.	.	.	.	.	.	.	.	.	.	.	.	.	.	(>16gg#\LL	.
.	.	.	.	.	.	.	.	.	.	.	.	.	.	.	.	.	.	.	.	.	.	.	.	16aa\	.
.	.	8d\	.	8d 8A/	.	8a 8f#/	.	8cc 8d/	.	.	.	.	.	.	.	.	.	.	.	.	.	.	.	16ccc'>\)	.
.	.	.	.	.	.	.	.	.	.	.	.	.	.	.	.	.	.	.	.	.	.	.	.	16dd'>\JJ	.
*	*	*	*	*	*	*	*	*	*	*	*	*	*	*	*	*	*	*	*	*	*	*	*	*Xrep	*
.	.	8D\	.	8A 8F#/	.	8f# 8A/	.	8a 8d/	.	.	.	.	.	.	.	.	.	.	.	.	.	.	.	(>16gg#\LL	.
.	.	.	.	.	.	.	.	.	.	.	.	.	.	.	.	.	.	.	.	.	.	.	.	16aa\)	.
.	.	8d\J	.	8dJ 8A/	.	8aJ 8f#/	.	8ccJ 8d/	.	.	.	.	.	.	.	.	.	.	.	.	.	.	.	16ccc'>\	.
.	.	.	.	.	.	.	.	.	.	.	.	.	.	.	.	.	.	.	.	.	.	.	.	16ff#'>\JJ	.
!!LO:PB:g=original
=38	=38	=38	=38	=38	=38	=38	=38	=38	=38	=38	=38	=38	=38	=38	=38	=38	=38	=38	=38	=38	=38	=38	=38	=38	=38
2.ryy	.	8G\L	.	8dL 8G/	.	8gL 8B/	.	8bL 8d/	.	2.r	.	2.r	.	2.r	.	2.r	.	2.r	.	2.r	.	2.r	.	(>16gg\LL	.
.	.	.	.	.	.	.	.	.	.	.	.	.	.	.	.	.	.	.	.	.	.	.	.	16bb\)	.
.	.	8G\	.	8d 8G/	.	8g 8B/	.	8b 8d/	.	.	.	.	.	.	.	.	.	.	.	.	.	.	.	16ddd'>\	.
.	.	.	.	.	.	.	.	.	.	.	.	.	.	.	.	.	.	.	.	.	.	.	.	16ggg'>\JJ	.
.	.	8G\	.	8d 8G/	.	8g 8B/	.	8b 8d/	.	.	.	.	.	.	.	.	.	.	.	.	.	.	.	(>16gg\LL	.
.	.	.	.	.	.	.	.	.	.	.	.	.	.	.	.	.	.	.	.	.	.	.	.	16ggg\)	.
.	.	8G\J	.	8dJ 8G/	.	8gJ 8B/	.	8bJ 8d/	.	.	.	.	.	.	.	.	.	.	.	.	.	.	.	16fff#'>\	.
.	.	.	.	.	.	.	.	.	.	.	.	.	.	.	.	.	.	.	.	.	.	.	.	16eee'>\JJ	.
*	*	*Xtremolo	*	*Xtremolo	*	*Xtremolo	*	*Xtremolo	*	*	*	*	*	*	*	*	*	*	*	*	*	*	*	*	*
.	.	8D\	.	8D/	.	8f# 8A/	.	8a 8d/	.	.	.	.	.	.	.	.	.	.	.	.	.	.	.	16ddd'>\LL	.
.	.	.	.	.	.	.	.	.	.	.	.	.	.	.	.	.	.	.	.	.	.	.	.	16ccc'>\	.
.	.	8r)	.	8r	.	8r	.	8r)	.	.	.	.	.	.	.	.	.	.	.	.	.	.	.	16bb'>\	.
.	.	.	.	.	.	.	.	.	.	.	.	.	.	.	.	.	.	.	.	.	.	.	.	16aa'>\JJ	.
=39	=39	=39	=39	=39	=39	=39	=39	=39	=39	=39	=39	=39	=39	=39	=39	=39	=39	=39	=39	=39	=39	=39	=39	=39	=39
*	*	*	*	*	*	*	*	*	*	*	*	*	*	*	*	*^	*	*	*	*	*	*	*	*	*
!	!	!	!LO:DY:b:Bi:t=%sor:rj	!	!LO:DY:b:rj	!	!LO:DY:b:rj	!	!LO:DY:b:Bi:t=%sor:rj	!	!	!	!	!	!LO:DY:b:rj	!	!	!	!	!	!	!	!	!	!	!
2.ryy	.	8.G\L	f	8.G/L	f	8.g/L	f	8.g/L	f	2.r	.	2.r	.	8.G\L	f	4r	4ryy	.	4r	.	4r	.	4r	.	4gg\	.
.	.	16B\Jk	.	16B/Jk	.	16b/Jk	.	16b/Jk	.	.	.	.	.	16B\Jk	.	.	.	.	.	.	.	.	.	.	.	.
.	.	4d\	.	4d\	.	4dd/	.	4dd/	.	.	.	.	.	4d\	.	4dd/	4dd\	.	8r	.	8r	.	8r	.	4r	.
.	.	.	.	.	.	.	.	.	.	.	.	.	.	.	.	.	.	.	(>16eeLL 16ccX\	.	(>16cccLL 16ee\	.	(>16ee\LL	.	.	.
.	.	.	.	.	.	.	.	.	.	.	.	.	.	.	.	.	.	.	16ddJJ 16b\)	.	16bbJJ 16dd\)	.	16dd\JJ)	.	.	.
.	.	4d\	.	4d\	.	4dd/	.	4dd/	.	.	.	.	.	4d\	.	4dd/	4dd\	.	16ddLL 16b\	.	16bbLL 16dd\	.	16dd'>\LL	.	4r	.
.	.	.	.	.	.	.	.	.	.	.	.	.	.	.	.	.	.	.	16dd 16b\	.	16bb 16dd\	.	16dd'>\	.	.	.
.	.	.	.	.	.	.	.	.	.	.	.	.	.	.	.	.	.	.	16dd 16b\	.	16bb 16dd\	.	16dd'>\	.	.	.
.	.	.	.	.	.	.	.	.	.	.	.	.	.	.	.	.	.	.	16ddJJ 16b\	.	16bbJJ 16dd\	.	16dd'>\JJ	.	.	.
=40	=40	=40	=40	=40	=40	=40	=40	=40	=40	=40	=40	=40	=40	=40	=40	=40	=40	=40	=40	=40	=40	=40	=40	=40	=40	=40
2.ryy	.	8.B\L	.	8.B/L	.	8.b/L	.	8.b/L	.	2.r	.	2.r	.	8.B\L	.	4r	4ryy	.	4dd 4b\	.	4bb 4dd\	.	4dd\	.	2.r	.
.	.	16G\Jk	.	16G/Jk	.	16g/Jk	.	16g/Jk	.	.	.	.	.	16G\Jk	.	.	.	.	.	.	.	.	.	.	.	.
.	.	4D\	.	4D/	.	4d/	.	4d/	.	.	.	.	.	4D\	.	4d/	4d\	.	8r	.	8r	.	8r	.	.	.
.	.	.	.	.	.	.	.	.	.	.	.	.	.	.	.	.	.	.	(>16ccLL 16a#X\	.	(>16bb-XLL 16dd-X\	.	(>16dd-X\LL	.	.	.
.	.	.	.	.	.	.	.	.	.	.	.	.	.	.	.	.	.	.	16ccXJJ 16a\)	.	16aaJJ 16cc\)	.	16cc\JJ)	.	.	.
.	.	4D\	.	4D/	.	4d/	.	4d/	.	.	.	.	.	4D\	.	4d/	4d\	.	16ccLL 16a\	.	16aaLL 16cc\	.	16cc\LL	.	.	.
.	.	.	.	.	.	.	.	.	.	.	.	.	.	.	.	.	.	.	16cc 16a\	.	16aa 16cc\	.	16cc\	.	.	.
.	.	.	.	.	.	.	.	.	.	.	.	.	.	.	.	.	.	.	16cc 16a\	.	16aa 16cc\	.	16cc\	.	.	.
.	.	.	.	.	.	.	.	.	.	.	.	.	.	.	.	.	.	.	16ccJJ 16a\	.	16aaJJ 16cc\	.	16cc\JJ	.	.	.
*	*	*	*	*	*	*	*	*	*	*	*	*	*	*	*	*v	*v	*	*	*	*	*	*	*	*	*
=41	=41	=41	=41	=41	=41	=41	=41	=41	=41	=41	=41	=41	=41	=41	=41	=41	=41	=41	=41	=41	=41	=41	=41	=41	=41
*	*	*tremolo	*	*tremolo	*	*tremolo	*	*tremolo	*	*	*	*	*	*	*	*	*	*	*	*	*	*	*	*	*
!	!	!	!LO:DY:b:rj	!	!LO:DY:b:rj	!	!LO:DY:b:rj	!	!LO:DY:b:rj	!	!	!	!	!	!	!	!	!	!	!	!	!	!	!	!
2.ryy	.	8E-X\L	pp	8E-X/L	pp	8e-XL 8G/	pp	8gL 8B-X/	pp	2.r	.	2.r	.	8E-X\	.	2.r	.	8b-X 8g\	.	8gg 8b-X\	.	8b-X\	.	16gg\LL	.
.	.	.	.	.	.	.	.	.	.	.	.	.	.	.	.	.	.	.	.	.	.	.	.	16gg\	.
.	.	8E-\	.	8E-/	.	8e- 8G/	.	8g 8B-/	.	.	.	.	.	8r	.	.	.	8r	.	8r	.	8r	.	16gg\	.
.	.	.	.	.	.	.	.	.	.	.	.	.	.	.	.	.	.	.	.	.	.	.	.	16gg\JJ	.
.	.	8E-\	.	8E-/	.	8e- 8G/	.	8g 8B-/	.	.	.	.	.	4r	.	.	.	4r	.	4r	.	4r	.	(>16gg\LL	.
.	.	.	.	.	.	.	.	.	.	.	.	.	.	.	.	.	.	.	.	.	.	.	.	16aa-X\	.
.	.	8E-\	.	8E-/	.	8e- 8G/	.	8g 8B-/	.	.	.	.	.	.	.	.	.	.	.	.	.	.	.	16bb-X\	.
.	.	.	.	.	.	.	.	.	.	.	.	.	.	.	.	.	.	.	.	.	.	.	.	16ccc\JJ)	.
.	.	8E-\	.	8E-/	.	8e- 8G/	.	8g 8B-/	.	.	.	.	.	4r	.	.	.	4r	.	4r	.	4r	.	16bb-\LL	.
.	.	.	.	.	.	.	.	.	.	.	.	.	.	.	.	.	.	.	.	.	.	.	.	16bb-\	.
.	.	8E-\J	.	8E-/J	.	8e-J 8G/	.	8gJ 8B-/	.	.	.	.	.	.	.	.	.	.	.	.	.	.	.	16bb-\	.
.	.	.	.	.	.	.	.	.	.	.	.	.	.	.	.	.	.	.	.	.	.	.	.	16bb-\JJ	.
=42	=42	=42	=42	=42	=42	=42	=42	=42	=42	=42	=42	=42	=42	=42	=42	=42	=42	=42	=42	=42	=42	=42	=42	=42	=42
*	*	*rep	*	*rep	*	*rep	*	*rep	*	*	*	*	*	*	*	*	*	*	*	*	*	*	*	*	*
2.ryy	.	8E-X\L	.	8E-X/L	.	8e-XL 8G/	.	8gL 8B-X/	.	2.r	.	2.r	.	2.r	.	2.r	.	2.r	.	2.r	.	2.r	.	(>16bb\LL	.
.	.	.	.	.	.	.	.	.	.	.	.	.	.	.	.	.	.	.	.	.	.	.	.	16eee-X\)	.
.	.	8E-\	.	8E-/	.	8e- 8G/	.	8g 8B-/	.	.	.	.	.	.	.	.	.	.	.	.	.	.	.	(>16ddd\	.
.	.	.	.	.	.	.	.	.	.	.	.	.	.	.	.	.	.	.	.	.	.	.	.	16eee-\JJ)	.
.	.	8E-\	.	8E-/	.	8e- 8G/	.	8g 8B-/	.	.	.	.	.	.	.	.	.	.	.	.	.	.	.	4.bb-X\	.
.	.	8E-\	.	8E-/	.	8e- 8G/	.	8g 8B-/	.	.	.	.	.	.	.	.	.	.	.	.	.	.	.	.	.
.	.	8E-\	.	8E-/	.	8e- 8G/	.	8g 8B-/	.	.	.	.	.	.	.	.	.	.	.	.	.	.	.	.	.
.	.	8E-\J	.	8E-/J	.	8e-J 8G/	.	8gJ 8B-/	.	.	.	.	.	.	.	.	.	.	.	.	.	.	.	8ccc\	.
*	*	*Xrep	*	*Xrep	*	*Xrep	*	*Xrep	*	*	*	*	*	*	*	*	*	*	*	*	*	*	*	*	*
=43	=43	=43	=43	=43	=43	=43	=43	=43	=43	=43	=43	=43	=43	=43	=43	=43	=43	=43	=43	=43	=43	=43	=43	=43	=43
*	*	*	*	*	*	*	*	*	*	*	*	*	*	*	*	*	*	*^	*	*	*	*	*	*	*
!	!	!	!	!	!	!	!	!	!	!	!	!	!	!	!	!	!	!	!	!LO:DY:a:Bi:t=%s&colon;:rj	!	!	!	!	!	!
2.ryy	.	8D\L	.	8D/L	.	8dL 8B-X/	.	8gL 8B-X/	.	2.r	.	2.r	.	2.r	.	2.r	.	8.g/L	2.rb	p	2.r	.	2.r	.	16.ddd'>\LL	.
.	.	.	.	.	.	.	.	.	.	.	.	.	.	.	.	.	.	.	.	.	.	.	.	.	32eee-X'>\K	.
.	.	8D\	.	8D/	.	8d 8B-/	.	8g 8B-/	.	.	.	.	.	.	.	.	.	.	.	.	.	.	.	.	16.ddd'>\	.
.	.	.	.	.	.	.	.	.	.	.	.	.	.	.	.	.	.	16b-X/Jk	.	.	.	.	.	.	.	.
.	.	.	.	.	.	.	.	.	.	.	.	.	.	.	.	.	.	.	.	.	.	.	.	.	32eee-'>\JJk	.
*	*	*	*	*	*	*	*	*	*	*	*	*	*	*	*	*	*	*	*	*	*	*	*	*	*rep	*
.	.	8D\	.	8D/	.	8d 8B-/	.	8g 8B-/	.	.	.	.	.	.	.	.	.	4dd/	.	.	.	.	.	.	16.ddd'>\LL	.
.	.	.	.	.	.	.	.	.	.	.	.	.	.	.	.	.	.	.	.	.	.	.	.	.	32eee-'>\K	.
.	.	8D\	.	8D/	.	8dJ 8B-/	.	8gJ 8B-/	.	.	.	.	.	.	.	.	.	.	.	.	.	.	.	.	16.ddd'>\	.
.	.	.	.	.	.	.	.	.	.	.	.	.	.	.	.	.	.	.	.	.	.	.	.	.	32eee-'>\JJk	.
*	*	*	*	*	*	*	*	*	*	*	*	*	*	*	*	*	*	*	*	*	*	*	*	*	*Xrep	*
*	*	*	*	*	*	*Xtremolo	*	*Xtremolo	*	*	*	*	*	*	*	*	*	*	*	*	*	*	*	*	*	*
.	.	8D\	.	8D/	.	8dL 8A/	.	8f#XL 8c/	.	.	.	.	.	.	.	.	.	4dd/	.	.	.	.	.	.	16.ddd\LL	.
.	.	.	.	.	.	.	.	.	.	.	.	.	.	.	.	.	.	.	.	.	.	.	.	.	32ccc\K	.
.	.	8D\J	.	8D/J	.	8dJ 8A/	.	8f#J 8c/	.	.	.	.	.	.	.	.	.	.	.	.	.	.	.	.	16.aa\	.
.	.	.	.	.	.	.	.	.	.	.	.	.	.	.	.	.	.	.	.	.	.	.	.	.	32bb-X\JJk	.
*	*	*Xtremolo	*	*Xtremolo	*	*	*	*	*	*	*	*	*	*	*	*	*	*	*	*	*	*	*	*	*	*
*	*	*	*	*	*	*	*	*	*	*	*	*	*	*	*	*	*	*v	*v	*	*	*	*	*	*	*
=44	=44	=44	=44	=44	=44	=44	=44	=44	=44	=44	=44	=44	=44	=44	=44	=44	=44	=44	=44	=44	=44	=44	=44	=44	=44
*	*	*	*	*	*	*	*	*	*	*	*	*	*	*^	*	*	*	*	*	*	*	*	*	*	*
*	*	*tremolo	*	*tremolo	*	*tremolo	*	*tremolo	*	*	*	*	*	*	*	*	*	*	*	*	*	*	*	*	*	*
!	!	!	!	!	!	!	!	!	!	!	!	!	!	!	!	!LO:DY:a:Bi:t=%s&colon;:rj	!	!	!	!	!	!	!	!	!	!
2.ryy	.	8E-X\L	.	8E-X/L	.	8d#XL 8G/	.	8gL 8B-X/	.	2.r	.	2.r	.	8.E-X/L	2.rF	p	2.r	.	2.r	.	2.r	.	2.r	.	16.gg\LL	.
.	.	.	.	.	.	.	.	.	.	.	.	.	.	.	.	.	.	.	.	.	.	.	.	.	32aa\K	.
.	.	8E-\	.	8E-/	.	8d# 8G/	.	8g 8B-/	.	.	.	.	.	.	.	.	.	.	.	.	.	.	.	.	16.gg\	.
.	.	.	.	.	.	.	.	.	.	.	.	.	.	16G/Jk	.	.	.	.	.	.	.	.	.	.	.	.
.	.	.	.	.	.	.	.	.	.	.	.	.	.	.	.	.	.	.	.	.	.	.	.	.	32aa\JJk	.
*	*	*	*	*	*	*	*	*	*	*	*	*	*	*	*	*	*	*	*	*	*	*	*	*	*rep	*
.	.	8E-\	.	8E-/	.	8d# 8G/	.	8g 8B-/	.	.	.	.	.	4B-X/	.	.	.	.	.	.	.	.	.	.	16.gg\LL	.
.	.	.	.	.	.	.	.	.	.	.	.	.	.	.	.	.	.	.	.	.	.	.	.	.	32aa\K	.
.	.	8E-\	.	8E-/	.	8d# 8G/	.	8g 8B-/	.	.	.	.	.	.	.	.	.	.	.	.	.	.	.	.	16.gg\	.
.	.	.	.	.	.	.	.	.	.	.	.	.	.	.	.	.	.	.	.	.	.	.	.	.	32aa\JJk	.
*	*	*	*	*	*	*	*	*	*	*	*	*	*	*	*	*	*	*	*	*	*	*	*	*	*Xrep	*
.	.	8E-\	.	8E-/	.	8d# 8G/	.	8g 8B-/	.	.	.	.	.	4B-/	.	.	.	.	.	.	.	.	.	.	16.gg\LL	.
.	.	.	.	.	.	.	.	.	.	.	.	.	.	.	.	.	.	.	.	.	.	.	.	.	32aa\K	.
.	.	8E-\J	.	8E-/J	.	8d#J 8G/	.	8gJ 8B-/	.	.	.	.	.	.	.	.	.	.	.	.	.	.	.	.	16.bb-X\	.
.	.	.	.	.	.	.	.	.	.	.	.	.	.	.	.	.	.	.	.	.	.	.	.	.	32ccc\JJk	.
*	*	*	*	*	*	*	*	*	*	*	*	*	*	*v	*v	*	*	*	*	*	*	*	*	*	*	*
=45	=45	=45	=45	=45	=45	=45	=45	=45	=45	=45	=45	=45	=45	=45	=45	=45	=45	=45	=45	=45	=45	=45	=45	=45	=45
*	*	*	*	*	*	*	*	*	*	*	*	*	*	*	*	*	*	*^	*	*	*	*	*	*	*
!	!	!	!	!	!	!	!	!	!	!	!	!	!	!	!	!	!	!	!	!LO:DY:a:Bi:t=%s&colon;:rj	!	!	!	!	!	!
2.ryy	.	8D\L	.	8D/L	.	8dL 8B-X/	.	8gL 8B-X/	.	2.r	.	2.r	.	2.r	.	2.r	.	8.g/L	2.rb	p	2.r	.	2.r	.	16.ddd\LL	.
.	.	.	.	.	.	.	.	.	.	.	.	.	.	.	.	.	.	.	.	.	.	.	.	.	32eee-X\K	.
.	.	8D\	.	8D/	.	8d 8B-/	.	8g 8B-/	.	.	.	.	.	.	.	.	.	.	.	.	.	.	.	.	16.ddd\	.
.	.	.	.	.	.	.	.	.	.	.	.	.	.	.	.	.	.	16b-X/Jk	.	.	.	.	.	.	.	.
.	.	.	.	.	.	.	.	.	.	.	.	.	.	.	.	.	.	.	.	.	.	.	.	.	32eee-\JJk	.
*	*	*	*	*	*	*	*	*	*	*	*	*	*	*	*	*	*	*	*	*	*	*	*	*	*rep	*
.	.	8D\	.	8D/	.	8d 8B-/	.	8g 8B-/	.	.	.	.	.	.	.	.	.	4dd/	.	.	.	.	.	.	16.ddd\LL	.
.	.	.	.	.	.	.	.	.	.	.	.	.	.	.	.	.	.	.	.	.	.	.	.	.	32eee-\K	.
.	.	8D\	.	8D/	.	8dJ 8B-/	.	8gJ 8B-/	.	.	.	.	.	.	.	.	.	.	.	.	.	.	.	.	16.ddd\	.
.	.	.	.	.	.	.	.	.	.	.	.	.	.	.	.	.	.	.	.	.	.	.	.	.	32eee-\JJk	.
*	*	*	*	*	*	*	*	*	*	*	*	*	*	*	*	*	*	*	*	*	*	*	*	*	*Xrep	*
*	*	*	*	*	*	*Xtremolo	*	*Xtremolo	*	*	*	*	*	*	*	*	*	*	*	*	*	*	*	*	*	*
.	.	8D\	.	8D/	.	8d 8c/	.	8f#X 8A/	.	.	.	.	.	.	.	.	.	4dd/	.	.	.	.	.	.	16.ddd\LL	.
.	.	.	.	.	.	.	.	.	.	.	.	.	.	.	.	.	.	.	.	.	.	.	.	.	32ccc\K	.
.	.	8D\J	.	8D/J	.	8r	.	8r	.	.	.	.	.	.	.	.	.	.	.	.	.	.	.	.	16.aa\	.
.	.	.	.	.	.	.	.	.	.	.	.	.	.	.	.	.	.	.	.	.	.	.	.	.	32ddd\JJk	.
*	*	*Xtremolo	*	*Xtremolo	*	*	*	*	*	*	*	*	*	*	*	*	*	*	*	*	*	*	*	*	*	*
!!LO:PB:g=original
=46	=46	=46	=46	=46	=46	=46	=46	=46	=46	=46	=46	=46	=46	=46	=46	=46	=46	=46	=46	=46	=46	=46	=46	=46	=46	=46
*	*	*	*	*	*	*	*	*	*	*	*	*^	*	*	*	*	*	*	*	*	*	*	*	*	*	*
*	*	*	*	*	*	*	*	*	*	*	*	*	*	*	*	*	*^	*	*	*	*	*	*	*	*	*	*
*	*	*	*	*	*	*tremolo	*	*tremolo	*	*	*	*	*	*	*	*	*	*	*	*	*	*	*	*	*	*	*	*
!LO:TX:a:Bi:t=C&colon;Baſsi:rj	!	!LO:TX:a:Bi:t=V&colon;Celli:rj	!	!	!	!	!	!	!	!	!	!	!	!	!	!	!	!	!	!	!	!	!	!	!	!	!	!
!	!LO:DY:b:rj	!	!LO:DY:b:rj	!	!LO:DY:b:rj	!	!LO:DY:b:rj	!	!LO:DY:b:rj	!	!	!	!	!	!	!LO:DY:b:rj	!	!	!	!	!	!LO:DY:b:rj	!	!LO:DY:b:rj	!	!LO:DY:b:rj	!	!
8.G\L	ff	8.G\L	ff	8.gL 8.G\	ff	16bnLL 16g/	ff	16ggLL 16bn\	ff	4r	.	4r	4ryy	.	8.GL 8.GG/	ff	4r	4ryy	.	[>2.b/	[>2.g\	f	[>2.bbn [>2.gg\	f	[>2.bb\	f	8gg\	.
.	.	.	.	.	.	16b 16g/	.	16gg 16b\	.	.	.	.	.	.	.	.	.	.	.	.	.	.	.	.	.	.	.	.
.	.	.	.	.	.	16b 16g/	.	16gg 16b\	.	.	.	.	.	.	.	.	.	.	.	.	.	.	.	.	.	.	8r	.
16Bn\Jk	.	16Bn\Jk	.	16bn\Jk	.	16b 16g/	.	16gg 16b\	.	.	.	.	.	.	16BnJk 16BBn/	.	.	.	.	.	.	.	.	.	.	.	.	.
!	!	!	!	!	!	!	!	!	!	!	!LO:DY:b:rj	!	!	!	!	!	!	!	!	!	!	!	!	!	!	!	!	!
4d\	.	4d\	.	4dd\	.	16b 16g/	.	16gg 16b\	.	4D\	f	4dd/	4dd\	.	4d 4D\	.	4dd/	4dd\	.	.	.	.	.	.	.	.	[>2ggg\	f
.	.	.	.	.	.	16b 16g/	.	16gg 16b\	.	.	.	.	.	.	.	.	.	.	.	.	.	.	.	.	.	.	.	.
.	.	.	.	.	.	16b 16g/	.	16gg 16b\	.	.	.	.	.	.	.	.	.	.	.	.	.	.	.	.	.	.	.	.
.	.	.	.	.	.	16b 16g/	.	16gg 16b\	.	.	.	.	.	.	.	.	.	.	.	.	.	.	.	.	.	.	.	.
4d\	.	4d\	.	4dd\	.	16b 16g/	.	16gg 16b\	.	4D\	.	4dd/	4dd\	.	4d 4D\	.	4dd/	4dd\	.	.	.	.	.	.	.	.	.	.
.	.	.	.	.	.	16b 16g/	.	16gg 16b\	.	.	.	.	.	.	.	.	.	.	.	.	.	.	.	.	.	.	.	.
.	.	.	.	.	.	16b 16g/	.	16gg 16b\	.	.	.	.	.	.	.	.	.	.	.	.	.	.	.	.	.	.	.	.
.	.	.	.	.	.	16bJJ 16g/	.	16ggJJ 16b\	.	.	.	.	.	.	.	.	.	.	.	.	.	.	.	.	.	.	.	.
=47	=47	=47	=47	=47	=47	=47	=47	=47	=47	=47	=47	=47	=47	=47	=47	=47	=47	=47	=47	=47	=47	=47	=47	=47	=47	=47	=47	=47
*	*	*	*	*	*	*rep	*	*rep	*	*	*	*	*	*	*	*	*	*	*	*	*	*	*	*	*	*	*	*
8.Bn\L	.	8.Bn\L	.	8.bn\L	.	16bLL 16g/	.	16ggLL 16bn\	.	4r	.	4r	4ryy	.	8.BL 8.BB/	.	4r	4ryy	.	4.b/]	4.g\]	.	4.bb] 4.gg\]	.	4.bb\]	.	4.ggg\]	.
.	.	.	.	.	.	16b 16g/	.	16gg 16b\	.	.	.	.	.	.	.	.	.	.	.	.	.	.	.	.	.	.	.	.
.	.	.	.	.	.	16b 16g/	.	16gg 16b\	.	.	.	.	.	.	.	.	.	.	.	.	.	.	.	.	.	.	.	.
16G\Jk	.	16G\Jk	.	16g\Jk	.	16b 16g/	.	16gg 16b\	.	.	.	.	.	.	16GJk 16GG/	.	.	.	.	.	.	.	.	.	.	.	.	.
4D\	.	4D\	.	4d\	.	16b 16g/	.	16gg 16b\	.	4D\	.	4d/	4d\	.	4D 4DD/	.	4d/	4d\	.	.	.	.	.	.	.	.	.	.
.	.	.	.	.	.	16b 16g/	.	16gg 16b\	.	.	.	.	.	.	.	.	.	.	.	.	.	.	.	.	.	.	.	.
.	.	.	.	.	.	16b 16g/	.	16gg 16b\	.	.	.	.	.	.	.	.	.	.	.	16b/LL	16g\LL	.	16bbLL 16gg\	.	16bb\LL	.	16ggg\LL	.
.	.	.	.	.	.	16b 16g/	.	16gg 16b\	.	.	.	.	.	.	.	.	.	.	.	16b/JJ	16g\JJ	.	16bbJJ 16gg\	.	16bb\JJ	.	16ggg\JJ	.
4D\	.	4D\	.	4d\	.	16b 16g/	.	16gg 16b\	.	4D\	.	4d/	4d\	.	4D 4DD/	.	4d/	4d\	.	8bL 8g\	4ryy	.	8bbL 8gg\	.	8bb\L	.	8ggg\L	.
.	.	.	.	.	.	16b 16g/	.	16gg 16b\	.	.	.	.	.	.	.	.	.	.	.	.	.	.	.	.	.	.	.	.
.	.	.	.	.	.	16b 16g/	.	16gg 16b\	.	.	.	.	.	.	.	.	.	.	.	8bJ 8g\	.	.	8bbJ 8gg\	.	8bb\J	.	8ggg\J	.
.	.	.	.	.	.	16bJJ 16g/	.	16ggJJ 16b\	.	.	.	.	.	.	.	.	.	.	.	.	.	.	.	.	.	.	.	.
*	*	*	*	*	*	*Xrep	*	*Xrep	*	*	*	*	*	*	*	*	*	*	*	*	*	*	*	*	*	*	*	*
*	*	*	*	*	*	*	*	*Xtremolo	*	*	*	*	*	*	*	*	*	*	*	*	*	*	*	*	*	*	*	*
*	*	*	*	*	*	*	*	*	*	*	*	*	*	*	*	*	*	*	*	*v	*v	*	*	*	*	*	*	*
*	*	*	*	*	*	*	*	*	*	*	*	*v	*v	*	*	*	*	*	*	*	*	*	*	*	*	*	*
=48	=48	=48	=48	=48	=48	=48	=48	=48	=48	=48	=48	=48	=48	=48	=48	=48	=48	=48	=48	=48	=48	=48	=48	=48	=48	=48
*	*	*	*	*tremolo	*	*	*	*	*	*	*	*	*	*tremolo	*	*tremolo	*	*	*tremolo	*	*tremolo	*	*tremolo	*	*tremolo	*
!LO:TX:b:Bi:t=pizz	!	!	!	!	!	!	!	!	!	!	!	!	!	!	!	!	!	!	!	!	!	!	!	!	!	!
!	!	!	!	!	!LO:DY:b:rj	!	!LO:DY:b:rj	!	!LO:DY:b:rj	!	!	!	!	!	!LO:DY:b:rj	!	!	!LO:DY:a:rj	!	!LO:DY:b:rj	!	!LO:DY:b:rj	!	!	!	!LO:DY:b:rj
8r	.	2.r	.	16dLL 16B/	p	16bLL 16g/	p	(>16gg\LL	p	2.r	.	2.r	.	8BL 8G\	p	8dd/L	2.ryy	p	8bL 8g/	p	8bbL 8gg\	p	8bb\L	.	8ggg\L	p
.	.	.	.	16d 16B/	.	16b 16g/	.	16aa\	.	.	.	.	.	.	.	.	.	.	.	.	.	.	.	.	.	.
8GG/L	.	.	.	16d 16B/	.	16b 16g/	.	16gg\	.	.	.	.	.	8B 8G\	.	8dd/	.	.	8b 8g/	.	8bb 8gg\	.	8bb\	.	8ggg\	.
.	.	.	.	16d 16B/	.	16b 16g/	.	16ff#\JJ	.	.	.	.	.	.	.	.	.	.	.	.	.	.	.	.	.	.
8BB/	.	.	.	16d 16B/	.	16b 16g/	.	16gg\LL	.	.	.	.	.	8B 8G\	.	8dd/	.	.	8b 8g/	.	8bb 8gg\	.	8bb\	.	8ggg\	.
.	.	.	.	16d 16B/	.	16b 16g/	.	16aa\	.	.	.	.	.	.	.	.	.	.	.	.	.	.	.	.	.	.
8D/	.	.	.	16d 16B/	.	16b 16g/	.	16bb\	.	.	.	.	.	8B 8G\	.	8dd/	.	.	8b 8g/	.	8bb 8gg\	.	8bb\	.	8ggg\	.
.	.	.	.	16d 16B/	.	16b 16g/	.	16ccc\JJ	.	.	.	.	.	.	.	.	.	.	.	.	.	.	.	.	.	.
8G/	.	.	.	16d 16B/	.	16b 16g/	.	16ddd\LL)	.	.	.	.	.	8B 8G\	.	8dd/	.	.	8b 8g/	.	8bb 8gg\	.	8bb\	.	8ggg\	.
.	.	.	.	16d 16B/	.	16b 16g/	.	16ddd'>\	.	.	.	.	.	.	.	.	.	.	.	.	.	.	.	.	.	.
8B/J	.	.	.	16d 16B/	.	16b 16g/	.	16ddd'>\	.	.	.	.	.	8BJ 8G\	.	8dd/J	.	.	8bJ 8g/	.	8bbJ 8gg\	.	8bb\J	.	8ggg\J	.
.	.	.	.	16dJJ 16B/	.	16bJJ 16g/	.	16ddd'>\JJ	.	.	.	.	.	.	.	.	.	.	.	.	.	.	.	.	.	.
*	*	*	*	*	*	*	*	*	*	*	*	*	*	*Xtremolo	*	*Xtremolo	*	*	*Xtremolo	*	*Xtremolo	*	*Xtremolo	*	*Xtremolo	*
=49	=49	=49	=49	=49	=49	=49	=49	=49	=49	=49	=49	=49	=49	=49	=49	=49	=49	=49	=49	=49	=49	=49	=49	=49	=49	=49
*	*	*	*	*rep	*	*rep	*	*	*	*	*	*	*	*	*	*	*	*	*	*	*	*	*	*	*	*
!	!	!LO:TX:a:Bi:t=pizz	!	!	!	!	!	!	!	!	!	!	!	!	!	!	!	!	!	!	!	!	!	!	!	!
4d\	.	8r	.	16dLL 16B/	.	16bLL 16g/	.	(>16ddd\LL	.	2.r	.	2.r	.	8BL 8G\	.	8dd/L	2.ryy	.	8bL 8g/	.	8bbL 8gg\	.	8bb\L	.	8ggg\L	.
.	.	.	.	16d 16B/	.	16b 16g/	.	16ccc\	.	.	.	.	.	.	.	.	.	.	.	.	.	.	.	.	.	.
.	.	8GG/L	.	16d 16B/	.	16b 16g/	.	16bb\	.	.	.	.	.	16BL 16G\	.	16dd/L	.	.	16bL 16g/	.	16bbL 16gg\	.	16bb\L	.	16ggg\L	.
.	.	.	.	16d 16B/	.	16b 16g/	.	16aa\JJ	.	.	.	.	.	16BJJ 16G\	.	16dd/JJ	.	.	16bJJ 16g/	.	16bbJJ 16gg\	.	16bb\JJ	.	16ggg\JJ	.
*	*	*	*	*	*	*	*	*	*	*	*	*	*	*tremolo	*	*tremolo	*	*	*tremolo	*	*tremolo	*	*tremolo	*	*tremolo	*
4r	.	8BB/	.	16d 16B/	.	16b 16g/	.	16gg\LL	.	.	.	.	.	16BLL 16G\	.	16dd/LL	.	.	16bLL 16g/	.	16bbLL 16gg\	.	16bb\LL	.	16ggg\LL	.
.	.	.	.	16d 16B/	.	16b 16g/	.	16ff#\	.	.	.	.	.	16B 16G\	.	16dd/	.	.	16b 16g/	.	16bb 16gg\	.	16bb\	.	16ggg\	.
.	.	8D/	.	16d 16B/	.	16b 16g/	.	16ee\	.	.	.	.	.	16B 16G\	.	16dd/	.	.	16b 16g/	.	16bb 16gg\	.	16bb\	.	16ggg\	.
.	.	.	.	16d 16B/	.	16b 16g/	.	16dd\JJ	.	.	.	.	.	16BJJ 16G\	.	16dd/JJ	.	.	16bJJ 16g/	.	16bbJJ 16gg\	.	16bb\JJ	.	16ggg\JJ	.
*	*	*	*	*	*	*	*	*	*	*	*	*	*	*Xtremolo	*	*Xtremolo	*	*	*Xtremolo	*	*Xtremolo	*	*Xtremolo	*	*Xtremolo	*
4r	.	8G/	.	16d 16B/	.	16b 16g/	.	16cc\LL	.	.	.	.	.	8B 8G\	.	8dd/	.	.	8b 8g/	.	8bb 8gg\	.	8bb\	.	8ggg\	.
.	.	.	.	16d 16B/	.	16b 16g/	.	16b\	.	.	.	.	.	.	.	.	.	.	.	.	.	.	.	.	.	.
.	.	8B/J	.	16d 16B/	.	16b 16g/	.	16a\	.	.	.	.	.	8r	.	8r	.	.	8r	.	8r	.	8r	.	8r	.
.	.	.	.	16dJJ 16B/	.	16bJJ 16g/	.	16g\JJ)	.	.	.	.	.	.	.	.	.	.	.	.	.	.	.	.	.	.
*	*	*	*	*Xrep	*	*Xrep	*	*	*	*	*	*	*	*	*	*	*	*	*	*	*	*	*	*	*	*
*	*	*	*	*Xtremolo	*	*	*	*	*	*	*	*	*	*	*	*	*	*	*	*	*	*	*	*	*	*
=50	=50	=50	=50	=50	=50	=50	=50	=50	=50	=50	=50	=50	=50	=50	=50	=50	=50	=50	=50	=50	=50	=50	=50	=50	=50	=50
*	*	*	*	*	*	*	*	*	*	*	*	*^	*	*	*	*	*	*	*	*	*	*	*	*	*	*
*	*	*	*	*	*	*	*	*	*	*	*	*	*	*	*^	*	*	*	*	*	*	*	*	*	*	*	*
*	*	*	*	*	*	*	*	*	*	*	*	*	*	*	*	*	*	*	*	*	*^	*	*	*	*	*	*	*
*	*	*	*	*	*	*	*	*tremolo	*	*	*	*	*	*	*	*	*	*	*	*	*	*	*	*	*	*	*	*	*
!LO:TX:b:Bi:t=arco	!	!LO:TX:a:Bi:t=arco	!	!	!	!	!	!	!	!	!	!	!	!	!	!	!	!	!	!	!	!	!	!	!	!	!	!	!
!	!LO:DY:b:rj	!	!LO:DY:b:rj	!	!LO:DY:b:rj	!	!LO:DY:b:rj	!	!LO:DY:b:rj	!	!	!	!	!LO:DY:b:rj	!	!	!LO:DY:b:rj	!	!	!LO:DY:b:rj	!	!	!LO:DY:b:rj	!	!LO:DY:b:rj	!	!LO:DY:b:rj	!	!LO:DY:b:rj
8.E\L	f	8.E\L	f	8.e\L	f	16eeLL 16g\	ff	16ggLL 16b\	ff	2.r	.	[>2.ee/	2.ee\	mf	8.E/L	8.E\L	f	[>2.ee/	2.ee\	f	[>2.b/	[>2.g\	f	[>2.bb [>2.gg\	f	[>2.bb\	f	[>2.ggg\	f
.	.	.	.	.	.	16ee 16g\	.	16gg 16b\	.	.	.	.	.	.	.	.	.	.	.	.	.	.	.	.	.	.	.	.	.
.	.	.	.	.	.	16ee 16g\	.	16gg 16b\	.	.	.	.	.	.	.	.	.	.	.	.	.	.	.	.	.	.	.	.	.
16G\Jk	.	16G\Jk	.	16g\Jk	.	16ee 16g\	.	16gg 16b\	.	.	.	.	.	.	16G/Jk	16G\Jk	.	.	.	.	.	.	.	.	.	.	.	.	.
4B\	.	4B\	.	4b\	.	16ee 16g\	.	16gg 16b\	.	.	.	.	.	.	4B/	4B\	.	.	.	.	.	.	.	.	.	.	.	.	.
.	.	.	.	.	.	16ee 16g\	.	16gg 16b\	.	.	.	.	.	.	.	.	.	.	.	.	.	.	.	.	.	.	.	.	.
.	.	.	.	.	.	16ee 16g\	.	16gg 16b\	.	.	.	.	.	.	.	.	.	.	.	.	.	.	.	.	.	.	.	.	.
.	.	.	.	.	.	16ee 16g\	.	16gg 16b\	.	.	.	.	.	.	.	.	.	.	.	.	.	.	.	.	.	.	.	.	.
4B\	.	4B\	.	4b\	.	16ee 16g\	.	16gg 16b\	.	.	.	.	.	.	4B/	4B\	.	.	.	.	.	.	.	.	.	.	.	.	.
.	.	.	.	.	.	16ee 16g\	.	16gg 16b\	.	.	.	.	.	.	.	.	.	.	.	.	.	.	.	.	.	.	.	.	.
.	.	.	.	.	.	16ee 16g\	.	16gg 16b\	.	.	.	.	.	.	.	.	.	.	.	.	.	.	.	.	.	.	.	.	.
.	.	.	.	.	.	16eeJJ 16g\	.	16ggJJ 16b\	.	.	.	.	.	.	.	.	.	.	.	.	.	.	.	.	.	.	.	.	.
*	*	*	*	*	*	*	*	*	*	*	*	*	*	*	*	*	*	*	*	*	*v	*v	*	*	*	*	*	*	*
*	*	*	*	*	*	*	*	*	*	*	*	*	*	*	*v	*v	*	*	*	*	*	*	*	*	*	*	*	*
=51	=51	=51	=51	=51	=51	=51	=51	=51	=51	=51	=51	=51	=51	=51	=51	=51	=51	=51	=51	=51	=51	=51	=51	=51	=51	=51	=51
*	*	*	*	*	*	*rep	*	*rep	*	*	*	*	*	*	*	*	*	*	*	*	*	*	*	*	*	*	*
8.G\L	.	8.G\L	.	8.g\L	.	16eeLL 16g\	.	16ggLL 16b\	.	2.r	.	4.ee/]	4.ee\	.	8.G\L	.	4.ee/]	4.ee\	.	4.b] 4.g/]	.	4.bb] 4.gg\]	.	4.bb\]	.	4.ggg\]	.
.	.	.	.	.	.	16ee 16g\	.	16gg 16b\	.	.	.	.	.	.	.	.	.	.	.	.	.	.	.	.	.	.	.
.	.	.	.	.	.	16ee 16g\	.	16gg 16b\	.	.	.	.	.	.	.	.	.	.	.	.	.	.	.	.	.	.	.
16E\Jk	.	16E\Jk	.	16e\Jk	.	16ee 16g\	.	16gg 16b\	.	.	.	.	.	.	16E\Jk	.	.	.	.	.	.	.	.	.	.	.	.
4BB\	.	4BB\	.	4B\	.	16ee 16g\	.	16gg 16b\	.	.	.	.	.	.	4BB/	.	.	.	.	.	.	.	.	.	.	.	.
.	.	.	.	.	.	16ee 16g\	.	16gg 16b\	.	.	.	.	.	.	.	.	.	.	.	.	.	.	.	.	.	.	.
.	.	.	.	.	.	16ee 16g\	.	16gg 16b\	.	.	.	16ee/LL	16ee\LL	.	.	.	16ee/LL	16ee\LL	.	16bLL 16g/	.	16bbLL 16gg\	.	16bb\LL	.	16ggg\LL	.
.	.	.	.	.	.	16ee 16g\	.	16gg 16b\	.	.	.	16ee/JJ	16ee\JJ	.	.	.	16ee/JJ	16ee\JJ	.	16bJJ 16g/	.	16bbJJ 16gg\	.	16bb\JJ	.	16ggg\JJ	.
4BB\	.	4BB\	.	4B\	.	16ee 16g\	.	16gg 16b\	.	.	.	8ee/L	8ee\L	.	4BB/	.	8ee/L	8ee\L	.	8bL 8g/	.	8bbL 8gg\	.	8bb\L	.	8ggg\L	.
.	.	.	.	.	.	16ee 16g\	.	16gg 16b\	.	.	.	.	.	.	.	.	.	.	.	.	.	.	.	.	.	.	.
.	.	.	.	.	.	16ee 16g\	.	16gg 16b\	.	.	.	8ee/J	8ee\J	.	.	.	8ee/J	8ee\J	.	8bJ 8g/	.	8bbJ 8gg\	.	8bb\J	.	8ggg\J	.
.	.	.	.	.	.	16eeJJ 16g\	.	16ggJJ 16b\	.	.	.	.	.	.	.	.	.	.	.	.	.	.	.	.	.	.	.
*	*	*	*	*	*	*Xrep	*	*Xrep	*	*	*	*	*	*	*	*	*	*	*	*	*	*	*	*	*	*	*
*	*	*	*	*	*	*	*	*Xtremolo	*	*	*	*	*	*	*	*	*	*	*	*	*	*	*	*	*	*	*
=52	=52	=52	=52	=52	=52	=52	=52	=52	=52	=52	=52	=52	=52	=52	=52	=52	=52	=52	=52	=52	=52	=52	=52	=52	=52	=52	=52
*	*	*	*	*tremolo	*	*	*	*	*	*	*	*tremolo	*	*	*	*	*tremolo	*	*	*tremolo	*	*tremolo	*	*tremolo	*	*tremolo	*
!LO:TX:b:Bi:t=pizz	!	!	!	!	!	!	!	!	!	!	!	!	!	!	!	!	!	!	!	!	!	!	!	!	!	!	!
!	!	!	!	!	!LO:DY:b:rj	!	!LO:DY:b:rj	!	!	!	!	!	!	!LO:DY:a:rj	!	!	!	!	!LO:DY:a:rj	!	!LO:DY:b:rj	!	!LO:DY:b:rj	!	!LO:DY:b:rj	!	!LO:DY:b:rj
8r	.	2.r	.	16bLL 16e\	p	16eeLL 16g\	p	(>16gg\LL	.	2.r	.	8ee/L	4ee\	p	8r	.	8ee/L	2.r	p	8bL 8g/	p	8bbL 8gg\	p	8bb\L	p	8ggg\L	p
.	.	.	.	16b 16e\	.	16ee 16g\	.	16ff#\	.	.	.	.	.	.	.	.	.	.	.	.	.	.	.	.	.	.	.
!	!	!	!	!	!	!	!	!	!	!	!	!	!	!	!	!LO:DY:b:rj	!	!	!	!	!	!	!	!	!	!	!
8E\L	.	.	.	16b 16e\	.	16ee 16g\	.	16ee\	.	.	.	8ee/	.	.	8E'>\L	p	8ee/	.	.	8b 8g/	.	8bb 8gg\	.	8bb\	.	8ggg\	.
.	.	.	.	16b 16e\	.	16ee 16g\	.	16dd#X\JJ	.	.	.	.	.	.	.	.	.	.	.	.	.	.	.	.	.	.	.
8G\	.	.	.	16b 16e\	.	16ee 16g\	.	16ee\LL	.	.	.	8ee/	4r	.	8G'>\	.	8ee/	.	.	8b 8g/	.	8bb 8gg\	.	8bb\	.	8ggg\	.
.	.	.	.	16b 16e\	.	16ee 16g\	.	16ff#\	.	.	.	.	.	.	.	.	.	.	.	.	.	.	.	.	.	.	.
8BB\	.	.	.	16b 16e\	.	16ee 16g\	.	16gg\	.	.	.	8ee/	.	.	8BB'>\	.	8ee/	.	.	8b 8g/	.	8bb 8gg\	.	8bb\	.	8ggg\	.
.	.	.	.	16b 16e\	.	16ee 16g\	.	16aa\JJ	.	.	.	.	.	.	.	.	.	.	.	.	.	.	.	.	.	.	.
8E\	.	.	.	16b 16e\	.	16ee 16g\	.	16bb\LL)	.	.	.	8ee/	4r	.	8E'>\	.	8ee/	.	.	8b 8g/	.	8bb 8gg\	.	8bb\	.	8ggg\	.
.	.	.	.	16b 16e\	.	16ee 16g\	.	16bb'>\	.	.	.	.	.	.	.	.	.	.	.	.	.	.	.	.	.	.	.
8G\J	.	.	.	16b 16e\	.	16ee 16g\	.	16bb'>\	.	.	.	8ee/J	.	.	8G'>\J	.	8ee/J	.	.	8bJ 8g/	.	8bbJ 8gg\	.	8bb\J	.	8ggg\J	.
.	.	.	.	16bJJ 16e\	.	16eeJJ 16g\	.	16bb'>\JJ	.	.	.	.	.	.	.	.	.	.	.	.	.	.	.	.	.	.	.
*	*	*	*	*	*	*	*	*	*	*	*	*Xtremolo	*	*	*	*	*Xtremolo	*	*	*Xtremolo	*	*Xtremolo	*	*Xtremolo	*	*Xtremolo	*
=53	=53	=53	=53	=53	=53	=53	=53	=53	=53	=53	=53	=53	=53	=53	=53	=53	=53	=53	=53	=53	=53	=53	=53	=53	=53	=53	=53
*	*	*	*	*rep	*	*rep	*	*	*	*	*	*	*	*	*	*	*	*	*	*	*	*	*	*	*	*	*
!	!	!LO:TX:a:Bi:t=pizz	!	!	!	!	!	!	!	!	!	!	!	!	!	!	!	!	!	!	!	!	!	!	!	!	!
4B\	.	8r	.	16bLL 16e\	.	16eeLL 16g\	.	(>16bb\LL	.	2.r	.	8ee/L	2.r	.	8B'>\L	.	8ee/L	2.r	.	8bL 8g/	.	8bbL 8gg\	.	8bb\L	.	8ggg\L	.
.	.	.	.	16b 16e\	.	16ee 16g\	.	16aa\	.	.	.	.	.	.	.	.	.	.	.	.	.	.	.	.	.	.	.
.	.	8E\L	.	16b 16e\	.	16ee 16g\	.	16gg\	.	.	.	16ee/L	.	.	8E'>\	.	16ee/L	.	.	16bL 16g/	.	16bbL 16gg\	.	16bb\L	.	16ggg\L	.
.	.	.	.	16b 16e\	.	16ee 16g\	.	16ff#\JJ)	.	.	.	16ee/JJ	.	.	.	.	16ee/JJ	.	.	16bJJ 16g/	.	16bbJJ 16gg\	.	16bb\JJ	.	16ggg\JJ	.
*	*	*	*	*	*	*	*	*	*	*	*	*tremolo	*	*	*	*	*tremolo	*	*	*tremolo	*	*tremolo	*	*tremolo	*	*tremolo	*
4r	.	8G\	.	16b 16e\	.	16ee 16g\	.	(>16ee\LL	.	.	.	16ee/LL	.	.	8G'>\	.	16ee/LL	.	.	16bLL 16g/	.	16bbLL 16gg\	.	16bb\LL	.	16ggg\LL	.
.	.	.	.	16b 16e\	.	16ee 16g\	.	16dd\	.	.	.	16ee/	.	.	.	.	16ee/	.	.	16b 16g/	.	16bb 16gg\	.	16bb\	.	16ggg\	.
.	.	8B\	.	16b 16e\	.	16ee 16g\	.	16cc\	.	.	.	16ee/	.	.	8B'>\	.	16ee/	.	.	16b 16g/	.	16bb 16gg\	.	16bb\	.	16ggg\	.
.	.	.	.	16b 16e\	.	16ee 16g\	.	16b\JJ	.	.	.	16ee/JJ	.	.	.	.	16ee/JJ	.	.	16bJJ 16g/	.	16bbJJ 16gg\	.	16bb\JJ	.	16ggg\JJ	.
*	*	*	*	*	*	*	*	*	*	*	*	*Xtremolo	*	*	*	*	*Xtremolo	*	*	*Xtremolo	*	*Xtremolo	*	*Xtremolo	*	*Xtremolo	*
4r	.	8e\	.	16b 16e\	.	16ee 16g\	.	16a/LL	.	.	.	8ee/	.	.	8e'>\	.	8ee/	.	.	8b 8g/	.	8bb 8gg\	.	8bb\	.	8ggg\	.
.	.	.	.	16b 16e\	.	16ee 16g\	.	16g/)	.	.	.	.	.	.	.	.	.	.	.	.	.	.	.	.	.	.	.
.	.	8g\J	.	16b 16e\	.	16ee 16g\	.	16f#/	.	.	.	8r	.	.	8g'>\J	.	8r	.	.	8r	.	8r	.	8r	.	8r	.
.	.	.	.	16bJJ 16e\	.	16eeJJ 16g\	.	16e/JJ	.	.	.	.	.	.	.	.	.	.	.	.	.	.	.	.	.	.	.
*	*	*	*	*Xrep	*	*Xrep	*	*	*	*	*	*	*	*	*	*	*	*	*	*	*	*	*	*	*	*	*
*	*	*	*	*Xtremolo	*	*	*	*	*	*	*	*	*	*	*	*	*	*	*	*	*	*	*	*	*	*	*
*	*	*	*	*	*	*	*	*	*	*	*	*	*	*	*	*	*v	*v	*	*	*	*	*	*	*	*	*
=54	=54	=54	=54	=54	=54	=54	=54	=54	=54	=54	=54	=54	=54	=54	=54	=54	=54	=54	=54	=54	=54	=54	=54	=54	=54	=54
*	*	*	*	*	*	*	*	*tremolo	*	*tremolo	*	*	*	*	*	*	*	*	*	*	*	*	*	*	*	*
!LO:TX:b:Bi:t=arco	!	!LO:TX:a:Bi:t=arco	!	!	!	!	!	!	!	!	!	!	!	!	!	!	!	!	!	!	!	!	!	!	!	!
!	!LO:DY:b:rj	!	!LO:DY:b:rj	!	!LO:DY:b:rj	!	!LO:DY:b:rj	!	!LO:DY:b:rj	!	!LO:DY:b:rj	!	!	!LO:DY:b:rj	!	!LO:DY:b:rj	!	!LO:DY:b:rj	!	!LO:DY:b:rj	!	!LO:DY:b:rj	!	!LO:DY:b:rj	!	!LO:DY:b:rj
8.C#X\L	ff	8.C#X\L	ff	8.c#X\L	ff	16eeLL 16cc#X\	ff	(>16ggLL &(>16a\	ff	16AALL	ff	[>2.ee/	[>2.a\	f	8.C#X\L	f	[>2.ee [>2.a/	f	[>2.gg [>2.ee\	f	[>2.aa [>2.cc#X\	f	[>2.ccc#X\	f	[>2.ggg\	f
.	.	.	.	.	.	16ee 16cc#\	.	16gg 16a\	.	16AA/	.	.	.	.	.	.	.	.	.	.	.	.	.	.	.	.
.	.	.	.	.	.	16ee 16cc#\	.	16gg 16a\	.	16AA/	.	.	.	.	.	.	.	.	.	.	.	.	.	.	.	.
16E\Jk	.	16E\Jk	.	16e\Jk	.	16ee 16cc#\	.	16gg 16a\	.	16AA/	.	.	.	.	16E\Jk	.	.	.	.	.	.	.	.	.	.	.
4G\	.	4G\	.	4g\	.	16ee 16cc#\	.	16gg 16a\	.	16AA/	.	.	.	.	4G\	.	.	.	.	.	.	.	.	.	.	.
.	.	.	.	.	.	16ee 16cc#\	.	16gg 16a\	.	16AA/	.	.	.	.	.	.	.	.	.	.	.	.	.	.	.	.
.	.	.	.	.	.	16ee 16cc#\	.	16gg 16a\	.	16AA/	.	.	.	.	.	.	.	.	.	.	.	.	.	.	.	.
.	.	.	.	.	.	16ee 16cc#\	.	16gg 16a\	.	16AA/	.	.	.	.	.	.	.	.	.	.	.	.	.	.	.	.
4G\	.	4G\	.	4g\	.	16ee 16cc#\	.	16gg 16a\	.	16AA/	.	.	.	.	4G\	.	.	.	.	.	.	.	.	.	.	.
.	.	.	.	.	.	16ee 16cc#\	.	16gg 16a\	.	16AA/	.	.	.	.	.	.	.	.	.	.	.	.	.	.	.	.
.	.	.	.	.	.	16ee 16cc#\	.	16gg 16a\	.	16AA/	.	.	.	.	.	.	.	.	.	.	.	.	.	.	.	.
.	.	.	.	.	.	16eeJJ 16cc#\	.	16ggJJ 16a\	.	16AA/JJ	.	.	.	.	.	.	.	.	.	.	.	.	.	.	.	.
*	*	*	*	*	*	*	*	*	*	*	*	*v	*v	*	*	*	*	*	*	*	*	*	*	*	*	*
=55	=55	=55	=55	=55	=55	=55	=55	=55	=55	=55	=55	=55	=55	=55	=55	=55	=55	=55	=55	=55	=55	=55	=55	=55	=55
!	!	!	!	!	!	!	!	!LO:S:s=1:note:problem:note-level slur	!	!	!	!	!	!	!	!	!	!	!	!	!	!	!	!	!
!	!	!	!	!	!	!	!	!LO:S:s=2:note:problem:note-level slur	!	!	!	!	!	!	!	!	!	!	!	!	!	!	!	!	!
8.E\L	.	8.E\L	.	8.e\L	.	16eeLL 16cc#X\	.	16ggLL) 16a\&)	.	16AA/LL	.	4.ee] 4.a\]	.	8.E\L	.	4.ee] 4.a/]	.	4.gg] 4.ee\]	.	4.aa] 4.cc#\]	.	4.ccc#\]	.	4.ggg\]	.
.	.	.	.	.	.	16ee 16cc#\	.	16gg 16a\	.	16AA/	.	.	.	.	.	.	.	.	.	.	.	.	.	.	.
.	.	.	.	.	.	16ee 16cc#\	.	16gg 16a\	.	16AA/	.	.	.	.	.	.	.	.	.	.	.	.	.	.	.
16C\Jk	.	16C\Jk	.	16c\Jk	.	16ee 16cc#\	.	16gg 16a\	.	16AA/	.	.	.	16C\Jk	.	.	.	.	.	.	.	.	.	.	.
4AA/	.	4AA/	.	4A\	.	16ee 16cc#\	.	16gg 16a\	.	16AA/	.	.	.	4AA/	.	.	.	.	.	.	.	.	.	.	.
.	.	.	.	.	.	16ee 16cc#\	.	16gg 16a\	.	16AA/	.	.	.	.	.	.	.	.	.	.	.	.	.	.	.
.	.	.	.	.	.	16ee 16cc#\	.	16gg 16a\	.	16AA/	.	16eeLL 16a\	.	.	.	16eeLL 16a/	.	16ggLL 16ee\	.	16aaLL 16cc#X\	.	16ccc#X\LL	.	16ggg\LL	.
.	.	.	.	.	.	16ee 16cc#\	.	16gg 16a\	.	16AA/	.	16eeJJ 16a\	.	.	.	16eeJJ 16a/	.	16ggJJ 16ee\	.	16aaJJ 16cc#\	.	16ccc#\JJ	.	16ggg\JJ	.
4AA/	.	4AA/	.	4A\	.	16ee 16cc#\	.	16gg 16a\	.	16AA/	.	8eeL 8a\	.	4AA/	.	8eeL 8a/	.	8ggL 8ee\	.	8aaL 8cc#\	.	8ccc#\L	.	8ggg\L	.
.	.	.	.	.	.	16ee 16cc#\	.	16gg 16a\	.	16AA/	.	.	.	.	.	.	.	.	.	.	.	.	.	.	.
.	.	.	.	.	.	16ee 16cc#\	.	16gg 16a\	.	16AA/	.	8eeJ 8a\	.	.	.	8eeJ 8a/	.	8ggJ 8ee\	.	8aaJ 8cc#\	.	8ccc#\J	.	8ggg\J	.
.	.	.	.	.	.	16eeJJ 16cc#\	.	16ggJJ 16a\	.	16AA/JJ	.	.	.	.	.	.	.	.	.	.	.	.	.	.	.
*	*	*	*	*	*	*	*	*Xtremolo	*	*Xtremolo	*	*	*	*	*	*	*	*	*	*	*	*	*	*	*
=56	=56	=56	=56	=56	=56	=56	=56	=56	=56	=56	=56	=56	=56	=56	=56	=56	=56	=56	=56	=56	=56	=56	=56	=56	=56
*	*	*	*	*tremolo	*	*	*	*	*	*	*	*tremolo	*	*	*	*tremolo	*	*tremolo	*	*tremolo	*	*tremolo	*	*tremolo	*
*	*	*	*	*	*	*rep	*	*	*	*	*	*	*	*	*	*	*	*	*	*	*	*	*	*	*
8r	.	8r	.	16gLL 16A\	.	16eeLL 16cc#X\	.	(>16gg\LL	.	8AA/L	.	8eeL 8a\	.	8r	.	8eeL 8a/	.	8ggL 8ee\	.	8aaL 8cc#X\	.	8ccc#X\L	.	8ggg\L	.
.	.	.	.	16g 16A\	.	16ee 16cc#\	.	16aa\	.	.	.	.	.	.	.	.	.	.	.	.	.	.	.	.	.
!	!	!LO:TX:b:Bi:t=//:problem:jako Col CB	!	!	!	!	!	!	!	!	!	!	!	!	!	!	!	!	!	!	!	!	!	!	!
8AA/L	.	8AA/Lyy	.	16g 16A\	.	16ee 16cc#\	.	16bb\	.	8AA/	.	8ee 8a\	.	8AA/L	.	8ee 8a/	.	8gg 8ee\	.	8aa 8cc#\	.	8ccc#\	.	8ggg\	.
.	.	.	.	16g 16A\	.	16ee 16cc#\	.	16aa\JJ	.	.	.	.	.	.	.	.	.	.	.	.	.	.	.	.	.
8C/	.	8C/yy	.	16g 16A\	.	16ee 16cc#\	.	16gg\LL	.	8AA/	.	8ee 8a\	.	8C/	.	8ee 8a/	.	8gg 8ee\	.	8aa 8cc#\	.	8ccc#\	.	8ggg\	.
.	.	.	.	16g 16A\	.	16ee 16cc#\	.	16aa\)	.	.	.	.	.	.	.	.	.	.	.	.	.	.	.	.	.
8AA/	.	8AA/yy	.	16g 16A\	.	16ee 16cc#\	.	(>16gg\	.	8AA/	.	8ee 8a\	.	8AA/	.	8ee 8a/	.	8gg 8ee\	.	8aa 8cc#\	.	8ccc#\	.	8ggg\	.
.	.	.	.	16g 16A\	.	16ee 16cc#\	.	16ff#\JJ	.	.	.	.	.	.	.	.	.	.	.	.	.	.	.	.	.
8C/	.	8C/yy	.	16g 16A\	.	16ee 16cc#\	.	16ee\LL	.	8AA/	.	8ee 8a\	.	8C/	.	8ee 8a/	.	8gg 8ee\	.	8aa 8cc#\	.	8ccc#\	.	8ggg\	.
.	.	.	.	16g 16A\	.	16ee 16cc#\	.	16ff#\	.	.	.	.	.	.	.	.	.	.	.	.	.	.	.	.	.
8E/J	.	8E/Jyy	.	16g 16A\	.	16ee 16cc#\	.	16ee\	.	8AA/J	.	8eeJ 8a\	.	8E/J	.	8eeJ 8a/	.	8ggJ 8ee\	.	8aaJ 8cc#\	.	8ccc#\J	.	8ggg\J	.
.	.	.	.	16gJJ 16A\	.	16eeJJ 16cc#\	.	16dd\JJ)	.	.	.	.	.	.	.	.	.	.	.	.	.	.	.	.	.
*	*	*	*	*	*	*Xrep	*	*	*	*	*	*	*	*	*	*	*	*	*	*	*	*	*	*	*
*	*	*	*	*Xtremolo	*	*Xtremolo	*	*	*	*	*	*Xtremolo	*	*	*	*Xtremolo	*	*Xtremolo	*	*Xtremolo	*	*Xtremolo	*	*Xtremolo	*
=57	=57	=57	=57	=57	=57	=57	=57	=57	=57	=57	=57	=57	=57	=57	=57	=57	=57	=57	=57	=57	=57	=57	=57	=57	=57
8A'>\L	.	8A'>\Lyy	.	8gL 8A\	.	16cc#X\LL	.	16cc#X\LL	.	4AA/	.	4ee 4a\	.	8A\L	.	4ee 4a/	.	4gg 4ee\	.	8aaL 8cc#X\	.	16ccc#X\LL	.	4ggg\	.
.	.	.	.	.	.	16dd\	.	16dd\	.	.	.	.	.	.	.	.	.	.	.	.	.	16ddd\	.	.	.
(>16c#X\L	.	(y>16c#X\Lyy	.	(>16cc#X\L	.	16cc#\	.	16cc#\	.	.	.	.	.	16c#X\L	.	.	.	.	.	16ccc#XL 16cc#\	.	16ccc#\	.	.	.
16B\JJ)	.	16B\JJ)yy	.	16b\JJ)	.	16b\JJ	.	16b\JJ	.	.	.	.	.	16B\JJ	.	.	.	.	.	16bbJJ 16b\	.	16bb\JJ	.	.	.
16A'>\LL	.	16A'>\LLyy	.	16a\LL	.	16a/LL	.	16a\LL	.	4r	.	4r	.	16A\LL	.	4r	.	4r	.	16aaLL 16a\	.	16aa\LL	.	4r	.
16B'>\	.	16B'>\yy	.	16b\	.	16b/	.	16b\	.	.	.	.	.	16B\	.	.	.	.	.	16bb 16b\	.	16bb\	.	.	.
16A'>\	.	16A'>\yy	.	16a\	.	16a/	.	16a\	.	.	.	.	.	16A\	.	.	.	.	.	16aa 16a\	.	16aa\	.	.	.
16G'>\JJ	.	16G'>\JJyy	.	16g\JJ	.	16g/JJ	.	16g\JJ	.	.	.	.	.	16G\JJ	.	.	.	.	.	16ggJJ 16g\	.	16gg\JJ	.	.	.
16F#\LL	.	16F#\LLyy	.	16f#\LL	.	16f#/LL	.	16f#/LL	.	4r	.	4r	.	16F#\LL	.	4r	.	4r	.	16ff#LL 16f#\	.	16ff#\LL	.	4r	.
16G\	.	16G\yy	.	16g\	.	16g/	.	16g/	.	.	.	.	.	16G\	.	.	.	.	.	16gg 16g\	.	16gg\	.	.	.
16F#\	.	16F#\yy	.	16f#\	.	16f#/	.	16f#/	.	.	.	.	.	16F#\	.	.	.	.	.	16ff# 16f#\	.	16ff#\	.	.	.
!!LO:TX:b:Bi:t=Polonez Da Capo
16E\JJ	.	16E\JJyy	.	16e\JJ	.	16e/JJ	.	16e/JJ	.	.	.	.	.	16E\JJ	.	.	.	.	.	16eeJJ 16e\	.	16ee\JJ	.	.	.
==	==	==	==	==	==	==	==	==	==	==	==	==	==	==	==	==	==	==	==	==	==	==	==	==	==
*-	*-	*-	*-	*-	*-	*-	*-	*-	*-	*-	*-	*-	*-	*-	*-	*-	*-	*-	*-	*-	*-	*-	*-	*-	*-
!!title: @{OTL};
!!!RDF**kern: > = above
!!!RDF**kern: < = below
!!!RDF**dynam: > = "dim", fontstyle= "bold-italic"
!!!RDF**dynam: < = "cresc", fontstyle= "bold-italic"
!!!RDF**kern: | = vertical stroke
!!!RDF**kern: N = linked
!!!RDF**kern: i = editorial accidental
!!!EED: Wojciech Jakubiak-Danek
!!!EST: 2021-06-10
!!!URL-scan: http://repozytorium.nifc.pl/skany/pl-wtm-nut--r1017
!!!ONB-nifc:
!!!ENC: Berenika Jozajtis
!!!END: 2021-05-30
